public/luts/fujifilm/FLog_to_ETERNA_65gird_V.1.00.cube
#title:FLog_to_ETERNA
#model:GFX ETERNA 55
#FUJIFILM Corporation
#Gamma:F-Log to ETERNA
#Gamut:F-Gamut to ITU-R BT.709
#Version:1.00
LUT_3D_SIZE 65
0.005859 0.005859 0.005859
0.005859 0.005859 0.005859
0.005859 0.005859 0.005859
0.005859 0.005859 0.005859
0.005859 0.005859 0.005859
0.033816 0.005893 0.009456
0.062750 0.007239 0.012301
0.090707 0.006937 0.017629
0.114949 0.007053 0.021981
0.140561 0.006807 0.024601
0.163434 0.007621 0.028953
0.187676 0.008072 0.031574
0.213288 0.007827 0.034196
0.241245 0.007861 0.037793
0.271546 0.008174 0.042366
0.304195 0.008430 0.049649
0.341928 0.008242 0.054445
0.380638 0.009031 0.060220
0.424429 0.009040 0.065238
0.466854 0.009411 0.071989
0.512993 0.009700 0.077985
0.553070 0.009456 0.085488
0.591779 0.010580 0.089530
0.631858 0.010336 0.097036
0.670567 0.011125 0.102808
0.708299 0.010938 0.107606
0.744662 0.011448 0.112403
0.780050 0.010645 0.117953
0.815042 0.011852 0.122750
0.849061 0.011747 0.128301
0.883078 0.011642 0.133851
0.915726 0.012233 0.139403
0.933907 0.012824 0.140070
0.933907 0.012824 0.140070
0.933907 0.012824 0.140070
0.933907 0.012824 0.140070
0.933907 0.012824 0.140070
0.933907 0.012824 0.140070
0.933907 0.012824 0.140070
0.933907 0.012824 0.140070
0.933907 0.012824 0.140070
0.933907 0.012824 0.140070
0.933907 0.012824 0.140070
0.933907 0.012824 0.140070
0.933907 0.012824 0.140070
0.933907 0.012824 0.140070
0.933907 0.012824 0.140070
0.933907 0.012824 0.140070
0.933907 0.012824 0.140070
0.933907 0.012824 0.140070
0.933907 0.012824 0.140070
0.933907 0.012824 0.140070
0.933907 0.012824 0.140070
0.933907 0.012824 0.140070
0.933907 0.012824 0.140070
0.933907 0.012824 0.140070
0.933907 0.012824 0.140070
0.933907 0.012824 0.140070
0.933907 0.012824 0.140070
0.933907 0.012824 0.140070
0.933907 0.012824 0.140070
0.933907 0.012824 0.140070
0.933907 0.012824 0.140070
0.933907 0.012824 0.140070
0.933907 0.012824 0.140070
0.005859 0.005859 0.005859
0.005859 0.005859 0.005859
0.005859 0.005859 0.005859
0.005859 0.005859 0.005859
0.005859 0.005859 0.005859
0.025017 0.007427 0.007503
0.054344 0.006426 0.012831
0.084647 0.007076 0.015676
0.106543 0.006913 0.019051
0.130785 0.007028 0.023402
0.157373 0.007760 0.027001
0.180638 0.006899 0.030375
0.203512 0.008049 0.032996
0.233816 0.008025 0.039301
0.261771 0.008396 0.041169
0.293443 0.007674 0.047473
0.328438 0.008882 0.052269
0.368515 0.008973 0.058042
0.408595 0.009065 0.063817
0.451018 0.009436 0.070567
0.489727 0.010225 0.076339
0.529804 0.010316 0.082113
0.567537 0.010129 0.086910
0.607615 0.010556 0.090953
0.646325 0.011010 0.098457
0.684057 0.010821 0.103253
0.721789 0.010299 0.109780
0.756784 0.011506 0.114578
0.793147 0.012016 0.119376
0.825795 0.012608 0.124926
0.861182 0.011805 0.130477
0.892854 0.011421 0.135051
0.925502 0.012348 0.138872
0.933907 0.012824 0.140070
0.933907 0.012824 0.140070
0.933907 0.012824 0.140070
0.933907 0.012824 0.140070
0.933907 0.012824 0.140070
0.933907 0.012824 0.140070
0.933907 0.012824 0.140070
0.933907 0.012824 0.140070
0.933907 0.012824 0.140070
0.933907 0.012824 0.140070
0.933907 0.012824 0.140070
0.933907 0.012824 0.140070
0.933907 0.012824 0.140070
0.933907 0.012824 0.140070
0.933907 0.012824 0.140070
0.933907 0.012824 0.140070
0.933907 0.012824 0.140070
0.933907 0.012824 0.140070
0.933907 0.012824 0.140070
0.933907 0.012824 0.140070
0.933907 0.012824 0.140070
0.933907 0.012824 0.140070
0.933907 0.012824 0.140070
0.933907 0.012824 0.140070
0.933907 0.012824 0.140070
0.933907 0.012824 0.140070
0.933907 0.012824 0.140070
0.933907 0.012824 0.140070
0.933907 0.012824 0.140070
0.933907 0.012824 0.140070
0.933907 0.012824 0.140070
0.933907 0.012824 0.140070
0.005859 0.005859 0.005859
0.005859 0.005859 0.005859
0.005859 0.005859 0.005859
0.005859 0.005859 0.005859
0.005859 0.005859 0.005859
0.016612 0.006951 0.006305
0.044569 0.006648 0.011634
0.078586 0.006880 0.015452
0.099114 0.007413 0.018828
0.125701 0.007809 0.024156
0.148967 0.007284 0.025802
0.171839 0.008097 0.030151
0.197451 0.007852 0.032774
0.221693 0.007967 0.037125
0.251997 0.008616 0.039968
0.283669 0.008232 0.044544
0.317686 0.008127 0.050094
0.352681 0.008998 0.056621
0.389043 0.009507 0.061418
0.429121 0.009599 0.067192
0.466854 0.009075 0.073718
0.505564 0.010201 0.077762
0.545641 0.010292 0.083535
0.584349 0.010745 0.091038
0.622082 0.010558 0.095836
0.661183 0.009673 0.100633
0.698524 0.011158 0.106407
0.734888 0.011669 0.111203
0.768904 0.011563 0.116754
0.804290 0.011097 0.120573
0.838308 0.010991 0.126125
0.871934 0.012560 0.132652
0.904974 0.011479 0.137226
0.933907 0.012824 0.140070
0.933907 0.012824 0.140070
0.933907 0.012824 0.140070
0.933907 0.012824 0.140070
0.933907 0.012824 0.140070
0.933907 0.012824 0.140070
0.933907 0.012824 0.140070
0.933907 0.012824 0.140070
0.933907 0.012824 0.140070
0.933907 0.012824 0.140070
0.933907 0.012824 0.140070
0.933907 0.012824 0.140070
0.933907 0.012824 0.140070
0.933907 0.012824 0.140070
0.933907 0.012824 0.140070
0.933907 0.012824 0.140070
0.933907 0.012824 0.140070
0.933907 0.012824 0.140070
0.933907 0.012824 0.140070
0.933907 0.012824 0.140070
0.933907 0.012824 0.140070
0.933907 0.012824 0.140070
0.933907 0.012824 0.140070
0.933907 0.012824 0.140070
0.933907 0.012824 0.140070
0.933907 0.012824 0.140070
0.933907 0.012824 0.140070
0.933907 0.012824 0.140070
0.933907 0.012824 0.140070
0.933907 0.012824 0.140070
0.933907 0.012824 0.140070
0.933907 0.012824 0.140070
0.005859 0.005859 0.005859
0.005859 0.005859 0.005859
0.005859 0.005859 0.005859
0.005859 0.005859 0.005859
0.005859 0.005859 0.005859
0.010551 0.006755 0.006082
0.036161 0.006509 0.008704
0.068810 0.007100 0.014254
0.093053 0.007217 0.018606
0.117295 0.007668 0.021226
0.140561 0.006807 0.024601
0.165779 0.008236 0.028198
0.189045 0.007375 0.031574
0.213288 0.007827 0.034196
0.242221 0.008837 0.038769
0.270178 0.008534 0.044098
0.301850 0.008486 0.046942
0.334498 0.009078 0.052492
0.368515 0.008973 0.058042
0.407225 0.009763 0.063817
0.446326 0.008541 0.070343
0.485036 0.009667 0.074386
0.525113 0.009422 0.081891
0.562846 0.009235 0.086687
0.601555 0.010023 0.092460
0.639287 0.009836 0.097258
0.676626 0.011322 0.103032
0.712990 0.011833 0.107827
0.747008 0.011391 0.115109
0.782394 0.011260 0.117200
0.816412 0.011154 0.122750
0.849061 0.011747 0.128301
0.883078 0.011642 0.133851
0.913381 0.011953 0.138426
0.933907 0.012824 0.140070
0.933907 0.012824 0.140070
0.933907 0.012824 0.140070
0.933907 0.012824 0.140070
0.933907 0.012824 0.140070
0.933907 0.012824 0.140070
0.933907 0.012824 0.140070
0.933907 0.012824 0.140070
0.933907 0.012824 0.140070
0.933907 0.012824 0.140070
0.933907 0.012824 0.140070
0.933907 0.012824 0.140070
0.933907 0.012824 0.140070
0.933907 0.012824 0.140070
0.933907 0.012824 0.140070
0.933907 0.012824 0.140070
0.933907 0.012824 0.140070
0.933907 0.012824 0.140070
0.933907 0.012824 0.140070
0.933907 0.012824 0.140070
0.933907 0.012824 0.140070
0.933907 0.012824 0.140070
0.933907 0.012824 0.140070
0.933907 0.012824 0.140070
0.933907 0.012824 0.140070
0.933907 0.012824 0.140070
0.933907 0.012824 0.140070
0.933907 0.012824 0.140070
0.933907 0.012824 0.140070
0.933907 0.012824 0.140070
0.933907 0.012824 0.140070
0.005859 0.005859 0.005859
0.005859 0.005859 0.005859
0.005859 0.005859 0.005859
0.005859 0.005859 0.005859
0.005859 0.005859 0.005859
0.005859 0.005859 0.005859
0.025017 0.007427 0.007503
0.059036 0.007322 0.013056
0.084647 0.007076 0.015676
0.106543 0.006913 0.019051
0.134500 0.006947 0.022648
0.157373 0.007760 0.027001
0.181615 0.008212 0.029621
0.203512 0.008049 0.032996
0.230099 0.008780 0.036593
0.259426 0.007780 0.041921
0.286013 0.008511 0.045520
0.317686 0.008127 0.050094
0.352681 0.008998 0.056621
0.388067 0.008531 0.060442
0.426776 0.009319 0.066215
0.464508 0.009132 0.071013
0.503217 0.009585 0.078516
0.543294 0.009676 0.084289
0.579658 0.010187 0.089085
0.617391 0.009999 0.093883
0.656100 0.010452 0.101386
0.690117 0.010683 0.105206
0.726480 0.011193 0.110004
0.761868 0.010389 0.115554
0.796861 0.011261 0.122083
0.828534 0.011213 0.124926
0.863528 0.012419 0.129722
0.895200 0.012035 0.134296
0.925502 0.012348 0.138872
0.933907 0.012824 0.140070
0.933907 0.012824 0.140070
0.933907 0.012824 0.140070
0.933907 0.012824 0.140070
0.933907 0.012824 0.140070
0.933907 0.012824 0.140070
0.933907 0.012824 0.140070
0.933907 0.012824 0.140070
0.933907 0.012824 0.140070
0.933907 0.012824 0.140070
0.933907 0.012824 0.140070
0.933907 0.012824 0.140070
0.933907 0.012824 0.140070
0.933907 0.012824 0.140070
0.933907 0.012824 0.140070
0.933907 0.012824 0.140070
0.933907 0.012824 0.140070
0.933907 0.012824 0.140070
0.933907 0.012824 0.140070
0.933907 0.012824 0.140070
0.933907 0.012824 0.140070
0.933907 0.012824 0.140070
0.933907 0.012824 0.140070
0.933907 0.012824 0.140070
0.933907 0.012824 0.140070
0.933907 0.012824 0.140070
0.933907 0.012824 0.140070
0.933907 0.012824 0.140070
0.933907 0.012824 0.140070
0.933907 0.012824 0.140070
0.005859 0.005859 0.005859
0.005859 0.005859 0.005859
0.005859 0.005859 0.005859
0.005859 0.005859 0.005859
0.005859 0.005859 0.005859
0.005859 0.005859 0.005859
0.020326 0.006532 0.007281
0.046913 0.007264 0.010878
0.078586 0.006880 0.015452
0.099114 0.007413 0.018828
0.125701 0.007809 0.024156
0.148967 0.007284 0.025802
0.171839 0.008097 0.030151
0.193736 0.008269 0.031797
0.219348 0.008024 0.034418
0.244566 0.008781 0.041476
0.273893 0.008453 0.043343
0.304195 0.008430 0.049649
0.334498 0.009078 0.052492
0.368515 0.008973 0.058042
0.406248 0.008450 0.064569
0.444957 0.009238 0.070343
0.482689 0.009051 0.075141
0.520422 0.008864 0.079938
0.559131 0.009988 0.083980
0.597840 0.010106 0.093216
0.634204 0.010615 0.098012
0.670567 0.011125 0.102808
0.706930 0.011635 0.107606
0.742317 0.010832 0.113156
0.776333 0.011063 0.116976
0.808982 0.011655 0.122526
0.843001 0.011550 0.128079
0.875649 0.012478 0.131898
0.907320 0.012093 0.136473
0.933907 0.012824 0.140070
0.933907 0.012824 0.140070
0.933907 0.012824 0.140070
0.933907 0.012824 0.140070
0.933907 0.012824 0.140070
0.933907 0.012824 0.140070
0.933907 0.012824 0.140070
0.933907 0.012824 0.140070
0.933907 0.012824 0.140070
0.933907 0.012824 0.140070
0.933907 0.012824 0.140070
0.933907 0.012824 0.140070
0.933907 0.012824 0.140070
0.933907 0.012824 0.140070
0.933907 0.012824 0.140070
0.933907 0.012824 0.140070
0.933907 0.012824 0.140070
0.933907 0.012824 0.140070
0.933907 0.012824 0.140070
0.933907 0.012824 0.140070
0.933907 0.012824 0.140070
0.933907 0.012824 0.140070
0.933907 0.012824 0.140070
0.933907 0.012824 0.140070
0.933907 0.012824 0.140070
0.933907 0.012824 0.140070
0.933907 0.012824 0.140070
0.933907 0.012824 0.140070
0.933907 0.012824 0.140070
0.933907 0.012824 0.140070
0.005064 0.021882 0.002535
0.004481 0.018895 0.002313
0.005266 0.014876 0.003821
0.004290 0.013564 0.004574
0.003705 0.010578 0.004352
0.005859 0.005859 0.005859
0.010551 0.006755 0.006082
0.036161 0.006509 0.008704
0.068810 0.007100 0.014254
0.093053 0.007217 0.018606
0.117295 0.007668 0.021226
0.140561 0.006807 0.024601
0.162064 0.008319 0.028953
0.185330 0.007458 0.032329
0.208203 0.008607 0.034949
0.235184 0.007665 0.037570
0.261771 0.008060 0.042898
0.288360 0.009126 0.044766
0.320031 0.008405 0.051070
0.352681 0.008998 0.056621
0.389043 0.009507 0.061418
0.426776 0.009319 0.066215
0.464508 0.009132 0.071013
0.503217 0.009585 0.078516
0.539580 0.010095 0.083313
0.577313 0.009908 0.088109
0.613676 0.010417 0.092906
0.651409 0.010229 0.097703
0.686402 0.011101 0.104230
0.721789 0.010634 0.108051
0.756784 0.011506 0.114578
0.790800 0.011400 0.120130
0.824818 0.011295 0.125680
0.856491 0.010910 0.130254
0.887769 0.012536 0.134074
0.917096 0.011872 0.137671
0.933907 0.012824 0.140070
0.933907 0.012824 0.140070
0.933907 0.012824 0.140070
0.933907 0.012824 0.140070
0.933907 0.012824 0.140070
0.933907 0.012824 0.140070
0.933907 0.012824 0.140070
0.933907 0.012824 0.140070
0.933907 0.012824 0.140070
0.933907 0.012824 0.140070
0.933907 0.012824 0.140070
0.933907 0.012824 0.140070
0.933907 0.012824 0.140070
0.933907 0.012824 0.140070
0.933907 0.012824 0.140070
0.933907 0.012824 0.140070
0.933907 0.012824 0.140070
0.933907 0.012824 0.140070
0.933907 0.012824 0.140070
0.933907 0.012824 0.140070
0.933907 0.012824 0.140070
0.933907 0.012824 0.140070
0.933907 0.012824 0.140070
0.933907 0.012824 0.140070
0.933907 0.012824 0.140070
0.933907 0.012824 0.140070
0.933907 0.012824 0.140070
0.933907 0.012824 0.140070
0.933907 0.012824 0.140070
0.005246 0.038883 0.000187
0.006031 0.035199 0.000000
0.005448 0.031876 0.001473
0.003495 0.029923 0.000000
0.006624 0.026182 0.002004
0.005064 0.021882 0.002535
0.004481 0.018895 0.002313
0.025792 0.015746 0.005465
0.057857 0.013351 0.010793
0.084647 0.007076 0.015676
0.106543 0.006913 0.019051
0.130785 0.007028 0.023402
0.152681 0.006865 0.026778
0.175554 0.008015 0.029399
0.198821 0.007154 0.032774
0.221693 0.007967 0.037125
0.249650 0.008001 0.040722
0.277607 0.007698 0.046051
0.306541 0.009045 0.048895
0.339582 0.007963 0.053469
0.372230 0.008555 0.059019
0.408595 0.009065 0.063817
0.446326 0.008541 0.070343
0.483666 0.010364 0.074386
0.520422 0.008864 0.079938
0.559131 0.009652 0.085710
0.595495 0.010162 0.090507
0.631858 0.010336 0.097036
0.668220 0.010846 0.101831
0.704584 0.011020 0.108360
0.738602 0.011250 0.112179
0.772619 0.011146 0.117731
0.805267 0.012074 0.121550
0.838308 0.010991 0.126125
0.869588 0.012281 0.131676
0.901259 0.012232 0.134520
0.930193 0.012907 0.140825
0.933907 0.012824 0.140070
0.933907 0.012824 0.140070
0.933907 0.012824 0.140070
0.933907 0.012824 0.140070
0.933907 0.012824 0.140070
0.933907 0.012824 0.140070
0.933907 0.012824 0.140070
0.933907 0.012824 0.140070
0.933907 0.012824 0.140070
0.933907 0.012824 0.140070
0.933907 0.012824 0.140070
0.933907 0.012824 0.140070
0.933907 0.012824 0.140070
0.933907 0.012824 0.140070
0.933907 0.012824 0.140070
0.933907 0.012824 0.140070
0.933907 0.012824 0.140070
0.933907 0.012824 0.140070
0.933907 0.012824 0.140070
0.933907 0.012824 0.140070
0.933907 0.012824 0.140070
0.933907 0.012824 0.140070
0.933907 0.012824 0.140070
0.933907 0.012824 0.140070
0.933907 0.012824 0.140070
0.933907 0.012824 0.140070
0.933907 0.012824 0.140070
0.933907 0.012824 0.140070
0.005619 0.060207 0.000769
0.006213 0.051863 0.000000
0.005236 0.050550 0.000102
0.006021 0.046866 0.000000
0.005438 0.043880 0.000000
0.005246 0.038883 0.000187
0.006031 0.035199 0.000000
0.012877 0.031376 0.001695
0.040642 0.026412 0.005824
0.073100 0.022008 0.011906
0.099104 0.019753 0.015281
0.122178 0.013559 0.020919
0.144467 0.011385 0.025047
0.167148 0.007538 0.028198
0.190022 0.008352 0.032551
0.213288 0.007827 0.034196
0.239875 0.008223 0.039523
0.264117 0.008674 0.042145
0.293443 0.007674 0.047473
0.324722 0.008963 0.053023
0.357763 0.008218 0.055868
0.392758 0.009425 0.060663
0.429121 0.009936 0.065461
0.466854 0.009075 0.073718
0.504587 0.008887 0.078516
0.540950 0.009397 0.083313
0.577313 0.009908 0.088109
0.613676 0.010417 0.092906
0.650039 0.010591 0.099433
0.686402 0.011101 0.104230
0.721789 0.010299 0.109780
0.754437 0.011226 0.113601
0.787085 0.011818 0.119153
0.820127 0.010736 0.123727
0.852776 0.011664 0.127547
0.885424 0.012256 0.133097
0.913381 0.011953 0.138426
0.933907 0.012824 0.140070
0.933907 0.012824 0.140070
0.933907 0.012824 0.140070
0.933907 0.012824 0.140070
0.933907 0.012824 0.140070
0.933907 0.012824 0.140070
0.933907 0.012824 0.140070
0.933907 0.012824 0.140070
0.933907 0.012824 0.140070
0.933907 0.012824 0.140070
0.933907 0.012824 0.140070
0.933907 0.012824 0.140070
0.933907 0.012824 0.140070
0.933907 0.012824 0.140070
0.933907 0.012824 0.140070
0.933907 0.012824 0.140070
0.933907 0.012824 0.140070
0.933907 0.012824 0.140070
0.933907 0.012824 0.140070
0.933907 0.012824 0.140070
0.933907 0.012824 0.140070
0.933907 0.012824 0.140070
0.933907 0.012824 0.140070
0.933907 0.012824 0.140070
0.933907 0.012824 0.140070
0.933907 0.012824 0.140070
0.933907 0.012824 0.140070
0.933907 0.012824 0.140070
0.005409 0.078881 0.000000
0.005801 0.076871 0.000153
0.004633 0.070898 0.000000
0.005025 0.068887 0.000460
0.006596 0.061520 0.000016
0.005619 0.060207 0.000769
0.005035 0.057220 0.000547
0.005236 0.050550 0.000102
0.026549 0.048072 0.000000
0.060767 0.040624 0.008360
0.088141 0.037335 0.013465
0.110238 0.030501 0.016394
0.135267 0.026933 0.020524
0.159709 0.020378 0.024430
0.181022 0.017228 0.027582
0.204096 0.011034 0.033219
0.228731 0.009477 0.036593
0.255712 0.007862 0.042676
0.283669 0.007896 0.046273
0.311626 0.007929 0.049872
0.344274 0.008857 0.053691
0.378291 0.008752 0.059243
0.412309 0.008982 0.063062
0.451018 0.009436 0.070567
0.485036 0.009667 0.074386
0.525113 0.009422 0.081891
0.561477 0.009932 0.086687
0.597840 0.010106 0.093216
0.634204 0.010615 0.098012
0.668220 0.010846 0.101831
0.704584 0.011020 0.108360
0.738602 0.011250 0.112179
0.770274 0.011202 0.115023
0.804290 0.011097 0.120573
0.835570 0.012385 0.126125
0.867243 0.011665 0.132430
0.898915 0.011617 0.135273
0.926872 0.011315 0.140601
0.933907 0.012824 0.140070
0.933907 0.012824 0.140070
0.933907 0.012824 0.140070
0.933907 0.012824 0.140070
0.933907 0.012824 0.140070
0.933907 0.012824 0.140070
0.933907 0.012824 0.140070
0.933907 0.012824 0.140070
0.933907 0.012824 0.140070
0.933907 0.012824 0.140070
0.933907 0.012824 0.140070
0.933907 0.012824 0.140070
0.933907 0.012824 0.140070
0.933907 0.012824 0.140070
0.933907 0.012824 0.140070
0.933907 0.012824 0.140070
0.933907 0.012824 0.140070
0.933907 0.012824 0.140070
0.933907 0.012824 0.140070
0.933907 0.012824 0.140070
0.933907 0.012824 0.140070
0.933907 0.012824 0.140070
0.933907 0.012824 0.140070
0.933907 0.012824 0.140070
0.933907 0.012824 0.140070
0.933907 0.012824 0.140070
0.933907 0.012824 0.140070
0.004804 0.099229 0.000000
0.005590 0.095208 0.000511
0.005399 0.090548 0.000000
0.004814 0.087561 0.000000
0.005207 0.085552 0.000000
0.005409 0.078881 0.000000
0.005801 0.076871 0.000153
0.004633 0.070898 0.000000
0.013824 0.068025 0.000000
0.046673 0.062619 0.000598
0.077178 0.055590 0.008187
0.102205 0.052358 0.010586
0.126840 0.050799 0.013961
0.149330 0.041619 0.019375
0.172011 0.037437 0.024258
0.194109 0.030603 0.027188
0.217184 0.024409 0.032825
0.245926 0.020423 0.037930
0.271347 0.015180 0.041083
0.299503 0.008207 0.045965
0.330784 0.009161 0.053246
0.363824 0.008079 0.057821
0.397842 0.008309 0.061639
0.432836 0.009181 0.068168
0.470569 0.008993 0.072966
0.507908 0.010480 0.078738
0.543294 0.010013 0.082558
0.581027 0.009489 0.089085
0.617391 0.009999 0.093883
0.652386 0.011206 0.098680
0.686402 0.011101 0.104230
0.721789 0.010299 0.109780
0.754437 0.011226 0.113601
0.787085 0.011818 0.119153
0.820127 0.010736 0.123727
0.851406 0.012362 0.127547
0.883078 0.011642 0.133851
0.912011 0.012987 0.136694
0.933907 0.012824 0.140070
0.933907 0.012824 0.140070
0.933907 0.012824 0.140070
0.933907 0.012824 0.140070
0.933907 0.012824 0.140070
0.933907 0.012824 0.140070
0.933907 0.012824 0.140070
0.933907 0.012824 0.140070
0.933907 0.012824 0.140070
0.933907 0.012824 0.140070
0.933907 0.012824 0.140070
0.933907 0.012824 0.140070
0.933907 0.012824 0.140070
0.933907 0.012824 0.140070
0.933907 0.012824 0.140070
0.933907 0.012824 0.140070
0.933907 0.012824 0.140070
0.933907 0.012824 0.140070
0.933907 0.012824 0.140070
0.933907 0.012824 0.140070
0.933907 0.012824 0.140070
0.933907 0.012824 0.140070
0.933907 0.012824 0.140070
0.933907 0.012824 0.140070
0.933907 0.012824 0.140070
0.933907 0.012824 0.140070
0.933907 0.012824 0.140070
0.006355 0.114859 0.000116
0.006163 0.109862 0.000649
0.004996 0.103889 0.000204
0.005388 0.102215 0.000000
0.004804 0.099229 0.000000
0.005197 0.097219 0.000000
0.005983 0.093535 0.000000
0.005399 0.090548 0.000000
0.004814 0.087561 0.000000
0.031212 0.083968 0.000000
0.066800 0.077167 0.001402
0.090850 0.072623 0.004556
0.116853 0.069694 0.011391
0.140321 0.061827 0.016050
0.162611 0.059654 0.020181
0.186076 0.052122 0.023110
0.207780 0.046962 0.027016
0.234964 0.038677 0.032652
0.261753 0.032402 0.037535
0.287171 0.026487 0.044149
0.317676 0.020130 0.048277
0.350918 0.012041 0.054136
0.384352 0.008949 0.059465
0.420715 0.009123 0.065992
0.454732 0.009354 0.069812
0.492465 0.008830 0.076339
0.527460 0.010037 0.081137
0.563822 0.010546 0.085933
0.601555 0.010023 0.092460
0.635572 0.010254 0.096281
0.671935 0.010428 0.102808
0.704584 0.011356 0.106629
0.739970 0.010553 0.112179
0.772619 0.011146 0.117731
0.804290 0.011097 0.120573
0.835570 0.012385 0.126125
0.867243 0.011665 0.132430
0.897545 0.012315 0.135273
0.926872 0.011315 0.140601
0.933907 0.012824 0.140070
0.933907 0.012824 0.140070
0.933907 0.012824 0.140070
0.933907 0.012824 0.140070
0.933907 0.012824 0.140070
0.933907 0.012824 0.140070
0.933907 0.012824 0.140070
0.933907 0.012824 0.140070
0.933907 0.012824 0.140070
0.933907 0.012824 0.140070
0.933907 0.012824 0.140070
0.933907 0.012824 0.140070
0.933907 0.012824 0.140070
0.933907 0.012824 0.140070
0.933907 0.012824 0.140070
0.933907 0.012824 0.140070
0.933907 0.012824 0.140070
0.933907 0.012824 0.140070
0.933907 0.012824 0.140070
0.933907 0.012824 0.140070
0.933907 0.012824 0.140070
0.933907 0.012824 0.140070
0.933907 0.012824 0.140070
0.933907 0.012824 0.140070
0.933907 0.012824 0.140070
0.933907 0.012824 0.140070
0.006930 0.129513 0.000254
0.006345 0.126527 0.000031
0.006154 0.121530 0.000562
0.005964 0.116533 0.001093
0.004987 0.115556 0.000116
0.006748 0.112848 0.000871
0.006163 0.109862 0.000649
0.004996 0.103889 0.000204
0.005388 0.102215 0.000000
0.016926 0.099623 0.000000
0.049383 0.096226 0.000340
0.081840 0.092830 0.001231
0.107844 0.090239 0.006336
0.131894 0.085693 0.009489
0.154970 0.079836 0.013396
0.175306 0.075373 0.017302
0.200725 0.069796 0.022185
0.225168 0.062905 0.027820
0.251565 0.058639 0.031950
0.279331 0.053677 0.036078
0.306511 0.045055 0.043445
0.338384 0.037663 0.049304
0.372997 0.028878 0.055164
0.406238 0.020789 0.061023
0.441434 0.014990 0.067107
0.478975 0.009470 0.074165
0.512993 0.009700 0.077985
0.549356 0.009874 0.084512
0.585719 0.010047 0.091038
0.622082 0.010558 0.095836
0.656100 0.010452 0.101386
0.690117 0.010683 0.105206
0.724136 0.010578 0.110757
0.756784 0.011506 0.114578
0.789432 0.012097 0.120130
0.821104 0.011713 0.124704
0.852776 0.011664 0.127547
0.883078 0.011642 0.133851
0.912011 0.012987 0.136694
0.933907 0.012824 0.140070
0.933907 0.012824 0.140070
0.933907 0.012824 0.140070
0.933907 0.012824 0.140070
0.933907 0.012824 0.140070
0.933907 0.012824 0.140070
0.933907 0.012824 0.140070
0.933907 0.012824 0.140070
0.933907 0.012824 0.140070
0.933907 0.012824 0.140070
0.933907 0.012824 0.140070
0.933907 0.012824 0.140070
0.933907 0.012824 0.140070
0.933907 0.012824 0.140070
0.933907 0.012824 0.140070
0.933907 0.012824 0.140070
0.933907 0.012824 0.140070
0.933907 0.012824 0.140070
0.933907 0.012824 0.140070
0.933907 0.012824 0.140070
0.933907 0.012824 0.140070
0.933907 0.012824 0.140070
0.933907 0.012824 0.140070
0.933907 0.012824 0.140070
0.933907 0.012824 0.140070
0.933907 0.012824 0.140070
0.005350 0.148884 0.000000
0.004182 0.142575 0.000167
0.004967 0.138891 0.000000
0.006145 0.133197 0.000476
0.006537 0.131524 0.000000
0.006345 0.126527 0.000031
0.006345 0.126527 0.000031
0.006154 0.121530 0.000562
0.006547 0.119856 0.000000
0.004987 0.115556 0.000116
0.036074 0.113193 0.000000
0.069316 0.106114 0.000000
0.094343 0.102881 0.002344
0.122300 0.102915 0.005941
0.146352 0.098370 0.009094
0.168641 0.095860 0.014953
0.190346 0.091037 0.017129
0.215373 0.087469 0.021257
0.241769 0.082867 0.027116
0.267582 0.075616 0.031023
0.295741 0.068643 0.035906
0.327614 0.060915 0.043496
0.359486 0.053524 0.049355
0.393706 0.046411 0.056191
0.428709 0.035615 0.062805
0.465274 0.029119 0.068887
0.501254 0.019636 0.074746
0.535865 0.010849 0.080605
0.571251 0.010046 0.086155
0.606246 0.010581 0.094413
0.641633 0.010451 0.096503
0.676626 0.011322 0.103032
0.710644 0.011216 0.108582
0.743685 0.010471 0.111426
0.774965 0.011424 0.118707
0.806637 0.011376 0.121550
0.838308 0.010991 0.126125
0.869588 0.012281 0.131676
