public/luts/fujifilm/FLog2C_to_REALA-ACE_65gird_V.1.00.cube
#title:FLog2C_to_REALA-ACE
#model:GFX ETERNA 55
#FUJIFILM Corporation
#Gamma:F-Log2C to REALA ACE
#Gamut:F-GamutC to ITU-R BT.709
#Version:1.00
LUT_3D_SIZE 65
0.000000 0.000000 0.000000
0.000000 0.000000 0.000000
0.000000 0.000000 0.000000
0.000000 0.000000 0.000000
0.009382 0.001789 0.000445
0.017205 0.000000 0.000000
0.035386 0.000205 0.000360
0.051223 0.000000 0.003512
0.075858 0.000000 0.000000
0.103815 0.000001 0.001831
0.152691 0.000000 0.004366
0.222097 0.000675 0.005087
0.301275 0.000554 0.012195
0.378109 0.000154 0.018327
0.448883 0.000000 0.025969
0.515549 0.000715 0.031879
0.583585 0.000169 0.044711
0.645558 0.000000 0.055590
0.713202 0.000000 0.074590
0.776343 0.000404 0.111871
0.833176 0.062042 0.167982
0.883737 0.138459 0.241531
0.905595 0.172530 0.308590
0.910850 0.186638 0.376351
0.914736 0.207494 0.412964
0.920576 0.234671 0.429035
0.928168 0.270136 0.449235
0.937320 0.309900 0.468903
0.940825 0.327148 0.473700
0.940825 0.327148 0.473700
0.940825 0.327148 0.473700
0.940825 0.327148 0.473700
0.940825 0.327148 0.473700
0.940825 0.327148 0.473700
0.940825 0.327148 0.473700
0.940825 0.327148 0.473700
0.940825 0.327148 0.473700
0.940825 0.327148 0.473700
0.940825 0.327148 0.473700
0.940825 0.327148 0.473700
0.940825 0.327148 0.473700
0.940825 0.327148 0.473700
0.940825 0.327148 0.473700
0.940825 0.327148 0.473700
0.940825 0.327148 0.473700
0.940825 0.327148 0.473700
0.940825 0.327148 0.473700
0.940825 0.327148 0.473700
0.940825 0.327148 0.473700
0.940825 0.327148 0.473700
0.940825 0.327148 0.473700
0.940825 0.327148 0.473700
0.940825 0.327148 0.473700
0.940825 0.327148 0.473700
0.940825 0.327148 0.473700
0.940825 0.327148 0.473700
0.940825 0.327148 0.473700
0.940825 0.327148 0.473700
0.940825 0.327148 0.473700
0.940825 0.327148 0.473700
0.940825 0.327148 0.473700
0.940825 0.327148 0.473700
0.940825 0.327148 0.473700
0.940825 0.327148 0.473700
0.940825 0.327148 0.473700
0.000000 0.000000 0.000000
0.000000 0.000000 0.000000
0.000000 0.000000 0.000000
0.000000 0.000000 0.000000
0.003715 0.000000 0.000000
0.012120 0.000394 0.000445
0.026981 0.000000 0.000000
0.045162 0.000000 0.001559
0.064713 0.000213 0.000496
0.091693 0.000000 0.001388
0.131772 0.000034 0.005430
0.194139 0.000000 0.006680
0.269603 0.000000 0.012811
0.345461 0.000000 0.011047
0.423271 0.000000 0.021617
0.487986 0.000000 0.023843
0.554651 0.000167 0.034945
0.617603 0.000399 0.048532
0.685637 0.000000 0.064824
0.751518 0.000000 0.093454
0.809950 0.020602 0.142453
0.864216 0.109949 0.208242
0.905211 0.168585 0.278504
0.908514 0.181077 0.342582
0.913377 0.196524 0.413051
0.918241 0.223733 0.422954
0.925642 0.254873 0.440223
0.934794 0.294638 0.459890
0.940825 0.327148 0.473700
0.940825 0.327148 0.473700
0.940825 0.327148 0.473700
0.940825 0.327148 0.473700
0.940825 0.327148 0.473700
0.940825 0.327148 0.473700
0.940825 0.327148 0.473700
0.940825 0.327148 0.473700
0.940825 0.327148 0.473700
0.940825 0.327148 0.473700
0.940825 0.327148 0.473700
0.940825 0.327148 0.473700
0.940825 0.327148 0.473700
0.940825 0.327148 0.473700
0.940825 0.327148 0.473700
0.940825 0.327148 0.473700
0.940825 0.327148 0.473700
0.940825 0.327148 0.473700
0.940825 0.327148 0.473700
0.940825 0.327148 0.473700
0.940825 0.327148 0.473700
0.940825 0.327148 0.473700
0.940825 0.327148 0.473700
0.940825 0.327148 0.473700
0.940825 0.327148 0.473700
0.940825 0.327148 0.473700
0.940825 0.327148 0.473700
0.940825 0.327148 0.473700
0.940825 0.327148 0.473700
0.940825 0.327148 0.473700
0.940825 0.327148 0.473700
0.940825 0.327148 0.473700
0.940825 0.327148 0.473700
0.940825 0.327148 0.473700
0.940825 0.327148 0.473700
0.940825 0.327148 0.473700
0.940825 0.327148 0.473700
0.000000 0.000000 0.000000
0.000000 0.000000 0.000000
0.000000 0.000000 0.000000
0.000000 0.000000 0.000000
0.000977 0.000977 0.000977
0.009382 0.001789 0.000445
0.021896 0.000509 0.000000
0.035386 0.000205 0.000360
0.053569 0.000461 0.002757
0.075858 0.000000 0.000000
0.111244 0.000000 0.000324
0.158753 0.000000 0.004590
0.231871 0.000455 0.006285
0.313790 0.000000 0.009933
0.390230 0.000000 0.022234
0.463350 0.000230 0.025660
0.529039 0.000075 0.034054
0.591990 0.000644 0.045911
0.657680 0.000155 0.056035
0.723954 0.000000 0.081957
0.786119 0.000000 0.118262
0.840203 0.073201 0.177747
0.893694 0.152884 0.252496
0.906178 0.173500 0.319196
0.911041 0.189282 0.387933
0.915904 0.212458 0.418602
0.921743 0.240308 0.431211
0.930313 0.277086 0.450656
0.938488 0.315537 0.471077
0.940825 0.327148 0.473700
0.940825 0.327148 0.473700
0.940825 0.327148 0.473700
0.940825 0.327148 0.473700
0.940825 0.327148 0.473700
0.940825 0.327148 0.473700
0.940825 0.327148 0.473700
0.940825 0.327148 0.473700
0.940825 0.327148 0.473700
0.940825 0.327148 0.473700
0.940825 0.327148 0.473700
0.940825 0.327148 0.473700
0.940825 0.327148 0.473700
0.940825 0.327148 0.473700
0.940825 0.327148 0.473700
0.940825 0.327148 0.473700
0.940825 0.327148 0.473700
0.940825 0.327148 0.473700
0.940825 0.327148 0.473700
0.940825 0.327148 0.473700
0.940825 0.327148 0.473700
0.940825 0.327148 0.473700
0.940825 0.327148 0.473700
0.940825 0.327148 0.473700
0.940825 0.327148 0.473700
0.940825 0.327148 0.473700
0.940825 0.327148 0.473700
0.940825 0.327148 0.473700
0.940825 0.327148 0.473700
0.940825 0.327148 0.473700
0.940825 0.327148 0.473700
0.940825 0.327148 0.473700
0.940825 0.327148 0.473700
0.940825 0.327148 0.473700
0.940825 0.327148 0.473700
0.940825 0.327148 0.473700
0.000000 0.000000 0.000000
0.000000 0.000000 0.000000
0.000000 0.000000 0.000000
0.000000 0.000000 0.000000
0.000000 0.000000 0.000000
0.006061 0.000197 0.000222
0.015837 0.000312 0.000000
0.029326 0.000009 0.000136
0.045162 0.000000 0.001559
0.067059 0.000157 0.003203
0.096386 0.000165 0.003341
0.135487 0.000000 0.006407
0.198830 0.000528 0.006903
0.283094 0.000000 0.011528
0.358558 0.000261 0.017660
0.429332 0.000000 0.023570
0.499712 0.000403 0.032188
0.563057 0.000000 0.039606
0.627376 0.000178 0.049730
0.696388 0.000000 0.067000
0.759923 0.000130 0.096383
0.819514 0.037039 0.152664
0.873196 0.123061 0.219961
0.905794 0.169220 0.290839
0.908706 0.183049 0.357626
0.913569 0.201521 0.412521
0.919800 0.227360 0.425883
0.926808 0.260175 0.444129
0.935569 0.301613 0.464773
0.940825 0.327148 0.473700
0.940825 0.327148 0.473700
0.940825 0.327148 0.473700
0.940825 0.327148 0.473700
0.940825 0.327148 0.473700
0.940825 0.327148 0.473700
0.940825 0.327148 0.473700
0.940825 0.327148 0.473700
0.940825 0.327148 0.473700
0.940825 0.327148 0.473700
0.940825 0.327148 0.473700
0.940825 0.327148 0.473700
0.940825 0.327148 0.473700
0.940825 0.327148 0.473700
0.940825 0.327148 0.473700
0.940825 0.327148 0.473700
0.940825 0.327148 0.473700
0.940825 0.327148 0.473700
0.940825 0.327148 0.473700
0.940825 0.327148 0.473700
0.940825 0.327148 0.473700
0.940825 0.327148 0.473700
0.940825 0.327148 0.473700
0.940825 0.327148 0.473700
0.940825 0.327148 0.473700
0.940825 0.327148 0.473700
0.940825 0.327148 0.473700
0.940825 0.327148 0.473700
0.940825 0.327148 0.473700
0.940825 0.327148 0.473700
0.940825 0.327148 0.473700
0.940825 0.327148 0.473700
0.940825 0.327148 0.473700
0.940825 0.327148 0.473700
0.940825 0.327148 0.473700
0.940825 0.327148 0.473700
0.000000 0.000000 0.000000
0.000000 0.000000 0.000000
0.000000 0.000000 0.000000
0.000000 0.000000 0.000000
0.000000 0.000000 0.000000
0.000977 0.000977 0.000977
0.009776 0.000115 0.000000
0.023266 0.000000 0.000000
0.037733 0.000484 0.001337
0.058652 0.000017 0.000273
0.086610 0.000386 0.002140
0.117305 0.000000 0.004008
0.172243 0.000000 0.005036
0.257483 0.000000 0.010637
0.329625 0.000000 0.011355
0.401375 0.000000 0.019973
0.472149 0.000000 0.024152
0.538815 0.000190 0.033523
0.598443 0.000000 0.041696
0.667456 0.000270 0.055504
0.732360 0.000103 0.083157
0.795110 0.001965 0.123145
0.849184 0.085979 0.191195
0.901698 0.164349 0.266699
0.907738 0.175782 0.329047
0.912209 0.192904 0.400493
0.917465 0.216086 0.421532
0.923888 0.246586 0.436094
0.930504 0.281746 0.451855
0.939073 0.318187 0.473030
0.940825 0.327148 0.473700
0.940825 0.327148 0.473700
0.940825 0.327148 0.473700
0.940825 0.327148 0.473700
0.940825 0.327148 0.473700
0.940825 0.327148 0.473700
0.940825 0.327148 0.473700
0.940825 0.327148 0.473700
0.940825 0.327148 0.473700
0.940825 0.327148 0.473700
0.940825 0.327148 0.473700
0.940825 0.327148 0.473700
0.940825 0.327148 0.473700
0.940825 0.327148 0.473700
0.940825 0.327148 0.473700
0.940825 0.327148 0.473700
0.940825 0.327148 0.473700
0.940825 0.327148 0.473700
0.940825 0.327148 0.473700
0.940825 0.327148 0.473700
0.940825 0.327148 0.473700
0.940825 0.327148 0.473700
0.940825 0.327148 0.473700
0.940825 0.327148 0.473700
0.940825 0.327148 0.473700
0.940825 0.327148 0.473700
0.940825 0.327148 0.473700
0.940825 0.327148 0.473700
0.940825 0.327148 0.473700
0.940825 0.327148 0.473700
0.940825 0.327148 0.473700
0.940825 0.327148 0.473700
0.940825 0.327148 0.473700
0.940825 0.327148 0.473700
0.940825 0.327148 0.473700
0.000583 0.002987 0.000222
0.000583 0.002987 0.000222
0.000000 0.000000 0.000000
0.000000 0.000000 0.000000
0.000000 0.000000 0.000000
0.000000 0.000000 0.000000
0.006061 0.000197 0.000222
0.017205 0.000000 0.000000
0.031672 0.000624 0.000000
0.048876 0.000000 0.002535
0.072142 0.000000 0.000718
0.100100 0.000419 0.000854
0.148977 0.000000 0.003390
0.207629 0.000000 0.007125
0.290524 0.000000 0.011750
0.374395 0.000236 0.019082
0.445168 0.000000 0.023261
0.508511 0.000000 0.030678
0.575570 0.000000 0.035612
0.638522 0.000000 0.049199
0.704795 0.000075 0.069930
0.769308 0.000000 0.107211
0.828101 0.052162 0.163629
0.880222 0.133887 0.231458
0.905009 0.171223 0.299715
0.909289 0.184356 0.366500
0.914545 0.202497 0.413497
0.920969 0.232998 0.428059
0.927976 0.266148 0.444574
0.936737 0.307586 0.465218
0.940825 0.327148 0.473700
0.940825 0.327148 0.473700
0.940825 0.327148 0.473700
0.940825 0.327148 0.473700
0.940825 0.327148 0.473700
0.940825 0.327148 0.473700
0.940825 0.327148 0.473700
0.940825 0.327148 0.473700
0.940825 0.327148 0.473700
0.940825 0.327148 0.473700
0.940825 0.327148 0.473700
0.940825 0.327148 0.473700
0.940825 0.327148 0.473700
0.940825 0.327148 0.473700
0.940825 0.327148 0.473700
0.940825 0.327148 0.473700
0.940825 0.327148 0.473700
0.940825 0.327148 0.473700
0.940825 0.327148 0.473700
0.940825 0.327148 0.473700
0.940825 0.327148 0.473700
0.940825 0.327148 0.473700
0.940825 0.327148 0.473700
0.940825 0.327148 0.473700
0.940825 0.327148 0.473700
0.940825 0.327148 0.473700
0.940825 0.327148 0.473700
0.940825 0.327148 0.473700
0.940825 0.327148 0.473700
0.940825 0.327148 0.473700
0.940825 0.327148 0.473700
0.940825 0.327148 0.473700
0.940825 0.327148 0.473700
0.940825 0.327148 0.473700
0.940825 0.327148 0.473700
0.000000 0.010690 0.000000
0.000000 0.008681 0.000000
0.000000 0.006671 0.000445
0.000192 0.004997 0.000000
0.000583 0.002987 0.000222
0.000000 0.000000 0.000000
0.003715 0.000000 0.000000
0.012120 0.000394 0.000445
0.026981 0.000000 0.000000
0.041447 0.000066 0.002313
0.060998 0.000297 0.001250
0.087978 0.000025 0.000411
0.121996 0.000256 0.004230
0.176934 0.000355 0.005257
0.267259 0.000000 0.011835
0.338032 0.000000 0.014285
0.414866 0.000000 0.018688
0.484269 0.000000 0.026329
0.544875 0.000000 0.037207
0.609195 0.000259 0.045602
0.678207 0.000017 0.062871
0.741742 0.000212 0.092253
0.804875 0.011394 0.134640
0.858748 0.102416 0.201406
0.904235 0.168281 0.274067
0.907930 0.179098 0.337168
0.913769 0.195858 0.406883
0.916679 0.219770 0.421753
0.924080 0.251246 0.437293
0.932649 0.288024 0.456738
0.942193 0.325779 0.477161
0.940825 0.327148 0.473700
0.940825 0.327148 0.473700
0.940825 0.327148 0.473700
0.940825 0.327148 0.473700
0.940825 0.327148 0.473700
0.940825 0.327148 0.473700
0.940825 0.327148 0.473700
0.940825 0.327148 0.473700
0.940825 0.327148 0.473700
0.940825 0.327148 0.473700
0.940825 0.327148 0.473700
0.940825 0.327148 0.473700
0.940825 0.327148 0.473700
0.940825 0.327148 0.473700
0.940825 0.327148 0.473700
0.940825 0.327148 0.473700
0.940825 0.327148 0.473700
0.940825 0.327148 0.473700
0.940825 0.327148 0.473700
0.940825 0.327148 0.473700
0.940825 0.327148 0.473700
0.940825 0.327148 0.473700
0.940825 0.327148 0.473700
0.940825 0.327148 0.473700
0.940825 0.327148 0.473700
0.940825 0.327148 0.473700
0.940825 0.327148 0.473700
0.940825 0.327148 0.473700
0.940825 0.327148 0.473700
0.940825 0.327148 0.473700
0.940825 0.327148 0.473700
0.940825 0.327148 0.473700
0.940825 0.327148 0.473700
0.940825 0.327148 0.473700
0.000000 0.018338 0.000360
0.000000 0.015351 0.000136
0.000000 0.013678 0.000000
0.000000 0.010690 0.000000
0.000000 0.008681 0.000000
0.000000 0.006671 0.000445
0.000192 0.004997 0.000000
0.009382 0.001789 0.000445
0.017205 0.000000 0.000000
0.035386 0.000205 0.000360
0.051223 0.000000 0.003512
0.075858 0.000000 0.000000
0.106160 0.000617 0.001079
0.152691 0.000000 0.004366
0.227179 0.000000 0.006063
0.304014 0.000000 0.010466
0.380456 0.000097 0.021035
0.454944 0.000000 0.024461
0.519264 0.000297 0.032856
0.583585 0.000169 0.044711
0.649274 0.000014 0.053105
0.717893 0.000102 0.078274
0.781428 0.000000 0.111117
0.835129 0.062987 0.175125
0.888226 0.145687 0.243929
0.906571 0.173506 0.309566
0.910457 0.187976 0.379059
0.915321 0.209471 0.418380
0.922529 0.236288 0.432719
0.928753 0.273459 0.447726
0.937905 0.312887 0.469124
0.940825 0.327148 0.473700
0.940825 0.327148 0.473700
0.940825 0.327148 0.473700
0.940825 0.327148 0.473700
0.940825 0.327148 0.473700
0.940825 0.327148 0.473700
0.940825 0.327148 0.473700
0.940825 0.327148 0.473700
0.940825 0.327148 0.473700
0.940825 0.327148 0.473700
0.940825 0.327148 0.473700
0.940825 0.327148 0.473700
0.940825 0.327148 0.473700
0.940825 0.327148 0.473700
0.940825 0.327148 0.473700
0.940825 0.327148 0.473700
0.940825 0.327148 0.473700
0.940825 0.327148 0.473700
0.940825 0.327148 0.473700
0.940825 0.327148 0.473700
0.940825 0.327148 0.473700
0.940825 0.327148 0.473700
0.940825 0.327148 0.473700
0.940825 0.327148 0.473700
0.940825 0.327148 0.473700
0.940825 0.327148 0.473700
0.940825 0.327148 0.473700
0.940825 0.327148 0.473700
0.940825 0.327148 0.473700
0.940825 0.327148 0.473700
0.940825 0.327148 0.473700
0.940825 0.327148 0.473700
0.940825 0.327148 0.473700
0.940825 0.327148 0.473700
0.000000 0.030005 0.000273
0.000956 0.024311 0.000803
0.000373 0.021324 0.000582
0.000765 0.019651 0.000000
0.000000 0.015351 0.000136
0.000000 0.013678 0.000000
0.000000 0.010690 0.000000
0.003513 0.006589 0.000000
0.014659 0.006006 0.000000
0.028149 0.005703 0.000000
0.045162 0.000321 0.000000
0.067059 0.000157 0.003203
0.091693 0.000000 0.001388
0.131772 0.000034 0.005430
0.194139 0.000000 0.006680
0.279379 0.000045 0.012281
0.349176 0.000000 0.012024
0.423271 0.000474 0.018156
0.491307 0.000000 0.030988
0.556996 0.000000 0.039382
0.621317 0.000000 0.049508
0.690328 0.000074 0.065047
0.752888 0.000000 0.091723
0.811510 0.024566 0.143653
0.864799 0.111927 0.213656
0.903841 0.168611 0.281964
0.908514 0.179733 0.349504
0.912008 0.197893 0.409591
0.919217 0.224709 0.423930
0.925248 0.256547 0.441199
0.934400 0.295975 0.462597
0.940825 0.327148 0.473700
0.940825 0.327148 0.473700
0.940825 0.327148 0.473700
0.940825 0.327148 0.473700
0.940825 0.327148 0.473700
0.940825 0.327148 0.473700
0.940825 0.327148 0.473700
0.940825 0.327148 0.473700
0.940825 0.327148 0.473700
0.940825 0.327148 0.473700
0.940825 0.327148 0.473700
0.940825 0.327148 0.473700
0.940825 0.327148 0.473700
0.940825 0.327148 0.473700
0.940825 0.327148 0.473700
0.940825 0.327148 0.473700
0.940825 0.327148 0.473700
0.940825 0.327148 0.473700
0.940825 0.327148 0.473700
0.940825 0.327148 0.473700
0.940825 0.327148 0.473700
0.940825 0.327148 0.473700
0.940825 0.327148 0.473700
0.940825 0.327148 0.473700
0.940825 0.327148 0.473700
0.940825 0.327148 0.473700
0.940825 0.327148 0.473700
0.940825 0.327148 0.473700
0.940825 0.327148 0.473700
0.940825 0.327148 0.473700
0.940825 0.327148 0.473700
0.940825 0.327148 0.473700
0.940825 0.327148 0.473700
0.940825 0.327148 0.473700
0.000000 0.043683 0.000000
0.000000 0.038686 0.000000
0.000363 0.032991 0.000496
0.000000 0.030005 0.000273
0.000172 0.028332 0.000000
0.000373 0.021324 0.000582
0.000765 0.019651 0.000000
0.000000 0.018338 0.000360
0.005266 0.015548 0.000360
0.022862 0.013488 0.000000
0.041831 0.010396 0.000000
0.057082 0.007720 0.000000
0.082502 0.002815 0.000411
0.114959 0.000000 0.000000
0.170873 0.000158 0.005036
0.241646 0.000233 0.007485
0.318481 0.000000 0.013618
0.391600 0.000000 0.018773
0.463350 0.000230 0.025660
0.528063 0.000000 0.029617
0.594728 0.000000 0.042448
0.659048 0.000000 0.056035
0.726299 0.000000 0.082934
0.790810 0.000000 0.120215
0.844693 0.079423 0.185336
0.895254 0.156848 0.253695
0.906178 0.174172 0.315735
0.911626 0.191261 0.393348
0.915904 0.212458 0.418602
0.921743 0.239636 0.434672
0.930313 0.277086 0.450656
0.938097 0.317211 0.472054
0.940825 0.327148 0.473700
0.940825 0.327148 0.473700
0.940825 0.327148 0.473700
0.940825 0.327148 0.473700
0.940825 0.327148 0.473700
0.940825 0.327148 0.473700
0.940825 0.327148 0.473700
0.940825 0.327148 0.473700
0.940825 0.327148 0.473700
0.940825 0.327148 0.473700
0.940825 0.327148 0.473700
0.940825 0.327148 0.473700
0.940825 0.327148 0.473700
0.940825 0.327148 0.473700
0.940825 0.327148 0.473700
0.940825 0.327148 0.473700
0.940825 0.327148 0.473700
0.940825 0.327148 0.473700
0.940825 0.327148 0.473700
0.940825 0.327148 0.473700
0.940825 0.327148 0.473700
0.940825 0.327148 0.473700
0.940825 0.327148 0.473700
0.940825 0.327148 0.473700
0.940825 0.327148 0.473700
0.940825 0.327148 0.473700
0.940825 0.327148 0.473700
0.940825 0.327148 0.473700
0.940825 0.327148 0.473700
0.940825 0.327148 0.473700
0.940825 0.327148 0.473700
0.940825 0.327148 0.473700
0.940825 0.327148 0.473700
0.000000 0.060010 0.000547
0.000152 0.051329 0.000854
0.000545 0.049656 0.000000
0.000000 0.043683 0.000000
0.000000 0.038686 0.000000
0.000000 0.035002 0.000000
0.000000 0.030005 0.000273
0.000172 0.028332 0.000000
0.000000 0.025344 0.000000
0.011126 0.022752 0.000000
0.032438 0.020273 0.000000
0.052773 0.016484 0.000000
0.073693 0.015680 0.000102
0.109281 0.009215 0.000016
0.152883 0.005236 0.000374
0.224835 0.000000 0.001626
0.292869 0.000414 0.009265
0.362275 0.000000 0.018637
0.437738 0.000139 0.024770
0.502450 0.000000 0.028725
0.566771 0.000000 0.038851
0.628746 0.000000 0.049730
0.696388 0.000272 0.065269
0.763246 0.000377 0.103528
0.822050 0.042314 0.153109
0.873780 0.125377 0.223646
0.905403 0.170894 0.291816
0.908706 0.183049 0.357626
0.913569 0.201521 0.412521
0.919800 0.227360 0.425883
0.926416 0.262184 0.443375
0.935569 0.301613 0.464773
0.940825 0.327148 0.473700
0.940825 0.327148 0.473700
0.940825 0.327148 0.473700
0.940825 0.327148 0.473700
0.940825 0.327148 0.473700
0.940825 0.327148 0.473700
0.940825 0.327148 0.473700
0.940825 0.327148 0.473700
0.940825 0.327148 0.473700
0.940825 0.327148 0.473700
0.940825 0.327148 0.473700
0.940825 0.327148 0.473700
0.940825 0.327148 0.473700
0.940825 0.327148 0.473700
0.940825 0.327148 0.473700
0.940825 0.327148 0.473700
0.940825 0.327148 0.473700
0.940825 0.327148 0.473700
0.940825 0.327148 0.473700
0.940825 0.327148 0.473700
0.940825 0.327148 0.473700
0.940825 0.327148 0.473700
0.940825 0.327148 0.473700
0.940825 0.327148 0.473700
0.940825 0.327148 0.473700
0.940825 0.327148 0.473700
0.940825 0.327148 0.473700
0.940825 0.327148 0.473700
0.940825 0.327148 0.473700
0.940825 0.327148 0.473700
0.940825 0.327148 0.473700
0.940825 0.327148 0.473700
0.940825 0.327148 0.473700
0.000123 0.086331 0.000598
0.000716 0.077650 0.000905
0.000000 0.070004 0.000000
0.000000 0.060010 0.000547
0.000343 0.056326 0.000324
0.000545 0.049656 0.000000
0.000000 0.043683 0.000000
0.001138 0.040975 0.000187
0.000000 0.035002 0.000000
0.006424 0.033188 0.000718
0.024021 0.031130 0.000000
0.043965 0.029348 0.000000
0.067623 0.027150 0.000000
0.103402 0.025345 0.000905
0.147980 0.022679 0.000511
0.207811 0.017338 0.000000
0.271748 0.009905 0.000000
0.341353 0.002998 0.005855
0.410174 0.000000 0.013273
0.478210 0.000237 0.020913
0.537839 0.000000 0.030817
0.603136 0.000062 0.045378
0.672147 0.000828 0.057457
0.736074 0.000000 0.084133
0.797063 0.002910 0.130288
0.851329 0.092593 0.194349
0.903652 0.166303 0.268653
0.907346 0.177120 0.331755
0.912793 0.195554 0.402446
0.917465 0.216086 0.421532
0.923497 0.248260 0.437071
0.931481 0.282723 0.452832
0.939263 0.323185 0.472500
0.940825 0.327148 0.473700
0.940825 0.327148 0.473700
0.940825 0.327148 0.473700
0.940825 0.327148 0.473700
0.940825 0.327148 0.473700
0.940825 0.327148 0.473700
0.940825 0.327148 0.473700
0.940825 0.327148 0.473700
0.940825 0.327148 0.473700
0.940825 0.327148 0.473700
0.940825 0.327148 0.473700
0.940825 0.327148 0.473700
0.940825 0.327148 0.473700
0.940825 0.327148 0.473700
0.940825 0.327148 0.473700
0.940825 0.327148 0.473700
0.940825 0.327148 0.473700
0.940825 0.327148 0.473700
0.940825 0.327148 0.473700
0.940825 0.327148 0.473700
0.940825 0.327148 0.473700
0.940825 0.327148 0.473700
0.940825 0.327148 0.473700
0.940825 0.327148 0.473700
0.940825 0.327148 0.473700
0.940825 0.327148 0.473700
0.940825 0.327148 0.473700
0.940825 0.327148 0.473700
0.940825 0.327148 0.473700
0.940825 0.327148 0.473700
0.940825 0.327148 0.473700
0.940825 0.327148 0.473700
0.000286 0.126329 0.000000
0.000486 0.119324 0.001093
0.000000 0.106679 0.000204
0.000000 0.088341 0.000000
0.000516 0.084657 0.000000
0.000133 0.075000 0.000000
0.000000 0.060010 0.000547
0.000343 0.056326 0.000324
0.000545 0.049656 0.000000
0.000000 0.046669 0.000000
0.010522 0.043099 0.000000
0.034763 0.043888 0.000000
0.063506 0.040910 0.000000
0.093224 0.039244 0.000000
0.137018 0.039925 0.000425
0.200170 0.036176 0.000000
0.258238 0.033207 0.000000
0.319830 0.025159 0.000000
0.390030 0.010915 0.000184
0.454944 0.003450 0.005426
0.517704 0.000000 0.014352
0.580655 0.000000 0.029668
0.644581 0.000465 0.045960
0.709487 0.000298 0.073613
0.773022 0.000156 0.104727
0.829663 0.056125 0.164828
0.882175 0.136176 0.231679
0.905986 0.172200 0.300692
0.909873 0.185997 0.373645
0.915129 0.205147 0.415450
0.920969 0.232998 0.428059
0.926608 0.266845 0.444574
0.937713 0.308562 0.466194
0.940825 0.327148 0.473700
0.940825 0.327148 0.473700
0.940825 0.327148 0.473700
0.940825 0.327148 0.473700
0.940825 0.327148 0.473700
0.940825 0.327148 0.473700
0.940825 0.327148 0.473700
0.940825 0.327148 0.473700
0.940825 0.327148 0.473700
0.940825 0.327148 0.473700
0.940825 0.327148 0.473700
0.940825 0.327148 0.473700
0.940825 0.327148 0.473700
0.940825 0.327148 0.473700
0.940825 0.327148 0.473700
0.940825 0.327148 0.473700
0.940825 0.327148 0.473700
0.940825 0.327148 0.473700
0.940825 0.327148 0.473700
0.940825 0.327148 0.473700
0.940825 0.327148 0.473700
0.940825 0.327148 0.473700
0.940825 0.327148 0.473700
0.940825 0.327148 0.473700
0.940825 0.327148 0.473700
0.940825 0.327148 0.473700
0.940825 0.327148 0.473700
0.940825 0.327148 0.473700
0.940825 0.327148 0.473700
0.940825 0.327148 0.473700
0.940825 0.327148 0.473700
0.940825 0.327148 0.473700
0.000841 0.164318 0.000000
0.000064 0.156335 0.000082
0.000859 0.140983 0.000000
0.000000 0.128003 0.000785
0.000486 0.119324 0.001093
0.000000 0.106679 0.000204
0.000000 0.088341 0.000000
0.000516 0.084657 0.000000
0.000133 0.075000 0.000000
0.000000 0.065007 0.000016
0.000334 0.067993 0.000238
0.022824 0.060157 0.000000
0.056449 0.062734 0.000067
0.086753 0.064056 0.000000
0.128985 0.060774 0.000000
0.181385 0.055597 0.000391
0.239453 0.052627 0.000442
0.307106 0.045112 0.000000
0.367720 0.035751 0.000000
0.433027 0.027284 0.000149
0.495011 0.016890 0.002460
0.560127 0.001410 0.014179
0.623470 0.000000 0.026789
0.687399 0.000000 0.050005
0.749958 0.000000 0.074950
0.809748 0.029961 0.129055
0.861286 0.107691 0.201852
0.904235 0.167609 0.277528
0.908907 0.179403 0.341606
0.912400 0.195883 0.410343
0.917655 0.221082 0.421000
0.924665 0.254569 0.435785
0.934209 0.291988 0.457937
0.940825 0.327148 0.473700
0.940825 0.327148 0.473700
0.940825 0.327148 0.473700
0.940825 0.327148 0.473700
0.940825 0.327148 0.473700
