public/luts/fujifilm/FLog2C_to_Velvia_65gird_V.1.00.cube
#title:FLog2C_to_Velvia
#model:GFX ETERNA 55
#FUJIFILM Corporation
#Gamma:F-Log2C to Velvia
#Gamut:F-GamutC to ITU-R BT.709
#Version:1.00
LUT_3D_SIZE 65
0.000000 0.000000 0.000000
0.000000 0.000000 0.000000
0.000000 0.000000 0.000000
0.000000 0.000000 0.000000
0.000000 0.000000 0.000000
0.003715 0.000000 0.000000
0.015837 0.000312 0.000000
0.035386 0.000205 0.000360
0.065690 0.001526 0.000000
0.100100 0.000419 0.000854
0.158753 0.000100 0.002859
0.222488 0.000009 0.000000
0.300692 0.000000 0.000000
0.386323 0.000000 0.000000
0.470589 0.000000 0.000456
0.563258 0.000000 0.008012
0.657881 0.000206 0.020981
0.753481 0.000358 0.043578
0.853771 0.000061 0.073320
0.953277 0.000000 0.122321
0.999407 0.000281 0.187067
0.999176 0.026158 0.268586
0.999529 0.054349 0.353789
0.999692 0.078551 0.434332
0.999652 0.115475 0.484171
0.999613 0.161471 0.487289
1.000000 0.211127 0.487169
0.999918 0.263458 0.492461
0.999899 0.286792 0.492290
0.999899 0.286792 0.492290
0.999899 0.286792 0.492290
0.999899 0.286792 0.492290
0.999899 0.286792 0.492290
0.999899 0.286792 0.492290
0.999899 0.286792 0.492290
0.999899 0.286792 0.492290
0.999899 0.286792 0.492290
0.999899 0.286792 0.492290
0.999899 0.286792 0.492290
0.999899 0.286792 0.492290
0.999899 0.286792 0.492290
0.999899 0.286792 0.492290
0.999899 0.286792 0.492290
0.999899 0.286792 0.492290
0.999899 0.286792 0.492290
0.999899 0.286792 0.492290
0.999899 0.286792 0.492290
0.999899 0.286792 0.492290
0.999899 0.286792 0.492290
0.999899 0.286792 0.492290
0.999899 0.286792 0.492290
0.999899 0.286792 0.492290
0.999899 0.286792 0.492290
0.999899 0.286792 0.492290
0.999899 0.286792 0.492290
0.999899 0.286792 0.492290
0.999899 0.286792 0.492290
0.999899 0.286792 0.492290
0.999899 0.286792 0.492290
0.999899 0.286792 0.492290
0.999899 0.286792 0.492290
0.999899 0.286792 0.492290
0.999899 0.286792 0.492290
0.999899 0.286792 0.492290
0.999899 0.286792 0.492290
0.000000 0.000000 0.000000
0.000000 0.000000 0.000000
0.000000 0.000000 0.000000
0.000000 0.000000 0.000000
0.000000 0.000000 0.000000
0.002347 0.000616 0.000000
0.008406 0.000813 0.000000
0.024243 0.001124 0.000000
0.049853 0.001215 0.000051
0.083871 0.002117 0.000411
0.131772 0.000706 0.001969
0.195508 0.000000 0.001488
0.263936 0.000076 0.001231
0.349569 0.000158 0.000000
0.433832 0.000266 0.000098
0.526501 0.000177 0.005921
0.615458 0.000000 0.015961
0.712427 0.000298 0.031637
0.815063 0.000280 0.062356
0.909877 0.000084 0.105942
0.999215 0.000000 0.165101
0.999780 0.013539 0.229179
0.999347 0.045414 0.314606
0.999511 0.068945 0.398611
1.000000 0.096135 0.479376
0.999240 0.140819 0.483245
0.999784 0.189466 0.488316
0.999938 0.240796 0.489173
0.999899 0.286792 0.492290
0.999899 0.286792 0.492290
0.999899 0.286792 0.492290
0.999899 0.286792 0.492290
0.999899 0.286792 0.492290
0.999899 0.286792 0.492290
0.999899 0.286792 0.492290
0.999899 0.286792 0.492290
0.999899 0.286792 0.492290
0.999899 0.286792 0.492290
0.999899 0.286792 0.492290
0.999899 0.286792 0.492290
0.999899 0.286792 0.492290
0.999899 0.286792 0.492290
0.999899 0.286792 0.492290
0.999899 0.286792 0.492290
0.999899 0.286792 0.492290
0.999899 0.286792 0.492290
0.999899 0.286792 0.492290
0.999899 0.286792 0.492290
0.999899 0.286792 0.492290
0.999899 0.286792 0.492290
0.999899 0.286792 0.492290
0.999899 0.286792 0.492290
0.999899 0.286792 0.492290
0.999899 0.286792 0.492290
0.999899 0.286792 0.492290
0.999899 0.286792 0.492290
0.999899 0.286792 0.492290
0.999899 0.286792 0.492290
0.999899 0.286792 0.492290
0.999899 0.286792 0.492290
0.999899 0.286792 0.492290
0.999899 0.286792 0.492290
0.999899 0.286792 0.492290
0.999899 0.286792 0.492290
0.999899 0.286792 0.492290
0.000000 0.000000 0.000000
0.000000 0.000000 0.000000
0.000000 0.000000 0.000000
0.000000 0.000000 0.000000
0.000000 0.000000 0.000000
0.000000 0.000000 0.000000
0.004691 0.000895 0.000222
0.015837 0.000312 0.000000
0.037733 0.000821 0.000000
0.069404 0.001108 0.000718
0.108506 0.001231 0.000324
0.166182 0.000000 0.001351
0.238325 0.000000 0.000340
0.309097 0.000732 0.000000
0.400790 0.000339 0.000714
0.487794 0.000000 0.000149
0.577725 0.000000 0.011164
0.673717 0.000000 0.024132
0.769316 0.000000 0.048461
0.869214 0.000030 0.084371
0.971066 0.000000 0.134347
0.999990 0.000243 0.202863
0.999559 0.033126 0.283098
0.999329 0.058330 0.368079
0.999884 0.080859 0.447644
0.999451 0.122144 0.484617
0.999411 0.168142 0.487734
0.999958 0.217797 0.487614
0.999324 0.272138 0.492152
0.999899 0.286792 0.492290
0.999899 0.286792 0.492290
0.999899 0.286792 0.492290
0.999899 0.286792 0.492290
0.999899 0.286792 0.492290
0.999899 0.286792 0.492290
0.999899 0.286792 0.492290
0.999899 0.286792 0.492290
0.999899 0.286792 0.492290
0.999899 0.286792 0.492290
0.999899 0.286792 0.492290
0.999899 0.286792 0.492290
0.999899 0.286792 0.492290
0.999899 0.286792 0.492290
0.999899 0.286792 0.492290
0.999899 0.286792 0.492290
0.999899 0.286792 0.492290
0.999899 0.286792 0.492290
0.999899 0.286792 0.492290
0.999899 0.286792 0.492290
0.999899 0.286792 0.492290
0.999899 0.286792 0.492290
0.999899 0.286792 0.492290
0.999899 0.286792 0.492290
0.999899 0.286792 0.492290
0.999899 0.286792 0.492290
0.999899 0.286792 0.492290
0.999899 0.286792 0.492290
0.999899 0.286792 0.492290
0.999899 0.286792 0.492290
0.999899 0.286792 0.492290
0.999899 0.286792 0.492290
0.999899 0.286792 0.492290
0.999899 0.286792 0.492290
0.999899 0.286792 0.492290
0.999899 0.286792 0.492290
0.000000 0.000000 0.000000
0.000000 0.000000 0.000000
0.000000 0.000000 0.000000
0.000000 0.000000 0.000000
0.000000 0.000000 0.000000
0.000000 0.000000 0.000000
0.002347 0.000616 0.000000
0.010752 0.001091 0.000445
0.027957 0.000706 0.000136
0.052200 0.001494 0.001028
0.092669 0.000920 0.000633
0.135487 0.000289 0.002946
0.203914 0.000420 0.002687
0.277426 0.000109 0.000000
0.363059 0.000000 0.001109
0.453383 0.000000 0.004226
0.541361 0.000000 0.004637
0.629925 0.000508 0.015652
0.727285 0.000000 0.032082
0.829922 0.000000 0.061071
0.926690 0.000364 0.111801
1.000000 0.000000 0.171269
1.000000 0.017826 0.247907
0.999146 0.048724 0.332355
0.999700 0.070917 0.413651
1.000000 0.105120 0.483504
1.000000 0.147793 0.488128
0.999585 0.196473 0.487032
0.999345 0.249140 0.490595
0.999899 0.286792 0.492290
0.999899 0.286792 0.492290
0.999899 0.286792 0.492290
0.999899 0.286792 0.492290
0.999899 0.286792 0.492290
0.999899 0.286792 0.492290
0.999899 0.286792 0.492290
0.999899 0.286792 0.492290
0.999899 0.286792 0.492290
0.999899 0.286792 0.492290
0.999899 0.286792 0.492290
0.999899 0.286792 0.492290
0.999899 0.286792 0.492290
0.999899 0.286792 0.492290
0.999899 0.286792 0.492290
0.999899 0.286792 0.492290
0.999899 0.286792 0.492290
0.999899 0.286792 0.492290
0.999899 0.286792 0.492290
0.999899 0.286792 0.492290
0.999899 0.286792 0.492290
0.999899 0.286792 0.492290
0.999899 0.286792 0.492290
0.999899 0.286792 0.492290
0.999899 0.286792 0.492290
0.999899 0.286792 0.492290
0.999899 0.286792 0.492290
0.999899 0.286792 0.492290
0.999899 0.286792 0.492290
0.999899 0.286792 0.492290
0.999899 0.286792 0.492290
0.999899 0.286792 0.492290
0.999899 0.286792 0.492290
0.999899 0.286792 0.492290
0.999899 0.286792 0.492290
0.999899 0.286792 0.492290
0.000000 0.000000 0.000000
0.000000 0.000000 0.000000
0.000000 0.000000 0.000000
0.000000 0.000000 0.000000
0.000000 0.000000 0.000000
0.000000 0.000000 0.000000
0.000977 0.000977 0.000977
0.006061 0.000197 0.000222
0.018181 0.000927 0.000000
0.040077 0.001100 0.000582
0.076835 0.000944 0.000000
0.118282 0.001010 0.001524
0.175957 0.000050 0.000820
0.245754 0.000000 0.000562
0.328649 0.000626 0.000000
0.415650 0.000000 0.001160
0.500891 0.000423 0.003301
0.589845 0.000416 0.009878
0.683492 0.000000 0.025332
0.785152 0.000000 0.048153
0.883681 0.000031 0.089254
0.985533 0.000001 0.139230
1.000000 0.003223 0.212714
1.000000 0.038421 0.296633
0.999519 0.060639 0.381391
0.999682 0.084841 0.461934
0.999643 0.126805 0.485817
0.999794 0.178135 0.486671
1.000000 0.227118 0.490012
1.000000 0.278112 0.492599
0.999899 0.286792 0.492290
0.999899 0.286792 0.492290
0.999899 0.286792 0.492290
0.999899 0.286792 0.492290
0.999899 0.286792 0.492290
0.999899 0.286792 0.492290
0.999899 0.286792 0.492290
0.999899 0.286792 0.492290
0.999899 0.286792 0.492290
0.999899 0.286792 0.492290
0.999899 0.286792 0.492290
0.999899 0.286792 0.492290
0.999899 0.286792 0.492290
0.999899 0.286792 0.492290
0.999899 0.286792 0.492290
0.999899 0.286792 0.492290
0.999899 0.286792 0.492290
0.999899 0.286792 0.492290
0.999899 0.286792 0.492290
0.999899 0.286792 0.492290
0.999899 0.286792 0.492290
0.999899 0.286792 0.492290
0.999899 0.286792 0.492290
0.999899 0.286792 0.492290
0.999899 0.286792 0.492290
0.999899 0.286792 0.492290
0.999899 0.286792 0.492290
0.999899 0.286792 0.492290
0.999899 0.286792 0.492290
0.999899 0.286792 0.492290
0.999899 0.286792 0.492290
0.999899 0.286792 0.492290
0.999899 0.286792 0.492290
0.999899 0.286792 0.492290
0.999899 0.286792 0.492290
0.000000 0.000000 0.000000
0.000000 0.000000 0.000000
0.000000 0.000000 0.000000
0.000000 0.000000 0.000000
0.000000 0.000000 0.000000
0.000000 0.000000 0.000000
0.000000 0.000000 0.000000
0.003715 0.000000 0.000000
0.013490 0.000000 0.000445
0.030303 0.001322 0.000000
0.060998 0.000633 0.000000
0.097754 0.000141 0.000000
0.152691 0.000239 0.000905
0.215059 0.000000 0.002157
0.290916 0.000000 0.000391
0.378894 0.000166 0.000000
0.465504 0.000216 0.002942
0.553483 0.000000 0.006812
0.647130 0.000000 0.017075
0.740384 0.000000 0.038695
0.841651 0.000003 0.071145
0.944871 0.000000 0.119391
0.999800 0.000000 0.180899
0.999961 0.024489 0.257979
0.999337 0.051032 0.345668
0.999501 0.075571 0.424481
1.000000 0.106121 0.487941
1.000000 0.158124 0.485336
0.999966 0.206466 0.485968
0.999727 0.258797 0.491262
0.999899 0.286792 0.492290
0.999899 0.286792 0.492290
0.999899 0.286792 0.492290
0.999899 0.286792 0.492290
0.999899 0.286792 0.492290
0.999899 0.286792 0.492290
0.999899 0.286792 0.492290
0.999899 0.286792 0.492290
0.999899 0.286792 0.492290
0.999899 0.286792 0.492290
0.999899 0.286792 0.492290
0.999899 0.286792 0.492290
0.999899 0.286792 0.492290
0.999899 0.286792 0.492290
0.999899 0.286792 0.492290
0.999899 0.286792 0.492290
0.999899 0.286792 0.492290
0.999899 0.286792 0.492290
0.999899 0.286792 0.492290
0.999899 0.286792 0.492290
0.999899 0.286792 0.492290
0.999899 0.286792 0.492290
0.999899 0.286792 0.492290
0.999899 0.286792 0.492290
0.999899 0.286792 0.492290
0.999899 0.286792 0.492290
0.999899 0.286792 0.492290
0.999899 0.286792 0.492290
0.999899 0.286792 0.492290
0.999899 0.286792 0.492290
0.999899 0.286792 0.492290
0.999899 0.286792 0.492290
0.999899 0.286792 0.492290
0.999899 0.286792 0.492290
0.999899 0.286792 0.492290
0.000977 0.000977 0.000977
0.000977 0.000977 0.000977
0.000000 0.000000 0.000000
0.000000 0.000000 0.000000
0.000000 0.000000 0.000000
0.000000 0.000000 0.000000
0.000000 0.000000 0.000000
0.002347 0.000616 0.000000
0.008406 0.000813 0.000000
0.021896 0.000509 0.000000
0.043793 0.001018 0.000000
0.080549 0.000526 0.000187
0.121996 0.000928 0.000769
0.183387 0.000000 0.002774
0.259244 0.000000 0.000000
0.343508 0.000000 0.000442
0.425426 0.000000 0.000000
0.514381 0.000119 0.003746
0.605682 0.000000 0.014761
0.699328 0.000000 0.026754
0.798250 0.000000 0.056496
0.897756 0.000361 0.102035
0.997262 0.000000 0.152766
0.999588 0.009550 0.224520
0.999155 0.042098 0.306484
0.999319 0.065965 0.388757
1.000000 0.091481 0.468546
1.000000 0.134453 0.487238
1.000000 0.188464 0.483879
0.999746 0.235127 0.493164
0.999314 0.283469 0.493796
0.999899 0.286792 0.492290
0.999899 0.286792 0.492290
0.999899 0.286792 0.492290
0.999899 0.286792 0.492290
0.999899 0.286792 0.492290
0.999899 0.286792 0.492290
0.999899 0.286792 0.492290
0.999899 0.286792 0.492290
0.999899 0.286792 0.492290
0.999899 0.286792 0.492290
0.999899 0.286792 0.492290
0.999899 0.286792 0.492290
0.999899 0.286792 0.492290
0.999899 0.286792 0.492290
0.999899 0.286792 0.492290
0.999899 0.286792 0.492290
0.999899 0.286792 0.492290
0.999899 0.286792 0.492290
0.999899 0.286792 0.492290
0.999899 0.286792 0.492290
0.999899 0.286792 0.492290
0.999899 0.286792 0.492290
0.999899 0.286792 0.492290
0.999899 0.286792 0.492290
0.999899 0.286792 0.492290
0.999899 0.286792 0.492290
0.999899 0.286792 0.492290
0.999899 0.286792 0.492290
0.999899 0.286792 0.492290
0.999899 0.286792 0.492290
0.999899 0.286792 0.492290
0.999899 0.286792 0.492290
0.999899 0.286792 0.492290
0.999899 0.286792 0.492290
0.000192 0.004661 0.001199
0.000583 0.002987 0.000222
0.000977 0.000977 0.000977
0.000977 0.000977 0.000977
0.000977 0.000977 0.000977
0.000000 0.000000 0.000000
0.000000 0.000000 0.000000
0.000000 0.000000 0.000000
0.003715 0.000000 0.000000
0.015837 0.000312 0.000000
0.035386 0.000205 0.000360
0.065690 0.001526 0.000000
0.103422 0.002012 0.001079
0.158753 0.000100 0.002859
0.228549 0.000206 0.000000
0.302061 0.000000 0.000000
0.392385 0.000000 0.000000
0.482709 0.000167 0.000902
0.571664 0.000161 0.007481
0.660226 0.000148 0.023688
0.757195 0.000000 0.044554
0.858464 0.000283 0.077004
0.959338 0.000000 0.126003
1.000000 0.000000 0.194965
0.999760 0.029480 0.267078
1.000000 0.056663 0.357473
0.999299 0.079554 0.438770
0.999652 0.114803 0.487632
0.999221 0.163144 0.488265
1.000000 0.214449 0.485661
0.999133 0.266806 0.494414
0.999899 0.286792 0.492290
0.999899 0.286792 0.492290
0.999899 0.286792 0.492290
0.999899 0.286792 0.492290
0.999899 0.286792 0.492290
0.999899 0.286792 0.492290
0.999899 0.286792 0.492290
0.999899 0.286792 0.492290
0.999899 0.286792 0.492290
0.999899 0.286792 0.492290
0.999899 0.286792 0.492290
0.999899 0.286792 0.492290
0.999899 0.286792 0.492290
0.999899 0.286792 0.492290
0.999899 0.286792 0.492290
0.999899 0.286792 0.492290
0.999899 0.286792 0.492290
0.999899 0.286792 0.492290
0.999899 0.286792 0.492290
0.999899 0.286792 0.492290
0.999899 0.286792 0.492290
0.999899 0.286792 0.492290
0.999899 0.286792 0.492290
0.999899 0.286792 0.492290
0.999899 0.286792 0.492290
0.999899 0.286792 0.492290
0.999899 0.286792 0.492290
0.999899 0.286792 0.492290
0.999899 0.286792 0.492290
0.999899 0.286792 0.492290
0.999899 0.286792 0.492290
0.999899 0.286792 0.492290
0.999899 0.286792 0.492290
0.999899 0.286792 0.492290
0.000383 0.009657 0.000667
0.000000 0.006671 0.000445
0.000192 0.004997 0.000000
0.000192 0.004661 0.001199
0.000583 0.002987 0.000222
0.000977 0.000977 0.000977
0.000977 0.000977 0.000977
0.000977 0.000977 0.000977
0.002347 0.000616 0.000000
0.008406 0.000813 0.000000
0.024243 0.001124 0.000000
0.052200 0.001494 0.001028
0.083871 0.002117 0.000411
0.131772 0.000706 0.001969
0.195508 0.000000 0.001488
0.273711 0.000000 0.002429
0.353284 0.000000 0.000000
0.441262 0.000000 0.000320
0.528848 0.000457 0.006898
0.621517 0.000032 0.014454
0.713795 0.000000 0.033367
0.820146 0.000000 0.059872
0.914961 0.000000 0.103457
1.000000 0.000293 0.167808
0.999386 0.013196 0.240539
0.999932 0.047392 0.320019
0.999511 0.066929 0.408993
1.000000 0.103142 0.478091
0.999431 0.145815 0.482715
0.999393 0.191140 0.489293
1.000000 0.243446 0.491126
0.999899 0.286792 0.492290
0.999899 0.286792 0.492290
0.999899 0.286792 0.492290
0.999899 0.286792 0.492290
0.999899 0.286792 0.492290
0.999899 0.286792 0.492290
0.999899 0.286792 0.492290
0.999899 0.286792 0.492290
0.999899 0.286792 0.492290
0.999899 0.286792 0.492290
0.999899 0.286792 0.492290
0.999899 0.286792 0.492290
0.999899 0.286792 0.492290
0.999899 0.286792 0.492290
0.999899 0.286792 0.492290
0.999899 0.286792 0.492290
0.999899 0.286792 0.492290
0.999899 0.286792 0.492290
0.999899 0.286792 0.492290
0.999899 0.286792 0.492290
0.999899 0.286792 0.492290
0.999899 0.286792 0.492290
0.999899 0.286792 0.492290
0.999899 0.286792 0.492290
0.999899 0.286792 0.492290
0.999899 0.286792 0.492290
0.999899 0.286792 0.492290
0.999899 0.286792 0.492290
0.999899 0.286792 0.492290
0.999899 0.286792 0.492290
0.999899 0.286792 0.492290
0.999899 0.286792 0.492290
0.999899 0.286792 0.492290
0.999899 0.286792 0.492290
0.000182 0.016664 0.000000
0.000000 0.013678 0.000000
0.000000 0.010690 0.000000
0.000383 0.009657 0.000667
0.000000 0.006671 0.000445
0.000192 0.004997 0.000000
0.000192 0.004661 0.001199
0.000192 0.004661 0.001199
0.000583 0.002987 0.000222
0.003323 0.001592 0.000222
0.016813 0.001624 0.000000
0.036363 0.001518 0.000000
0.068035 0.002141 0.000000
0.110853 0.001511 0.001301
0.172243 0.000133 0.001575
0.235979 0.000000 0.000000
0.312813 0.000314 0.000305
0.403529 0.000000 0.000000
0.490138 0.000000 0.002855
0.582810 0.000000 0.008680
0.672348 0.000207 0.025864
0.771662 0.000000 0.049437
0.871561 0.000000 0.087078
0.977127 0.000000 0.138031
0.999990 0.000243 0.202863
0.999166 0.034800 0.284075
1.000000 0.059979 0.365595
1.000000 0.083510 0.449597
0.999451 0.121472 0.488077
0.999020 0.169816 0.488711
0.999173 0.221145 0.489567
0.999717 0.269792 0.494637
0.999899 0.286792 0.492290
0.999899 0.286792 0.492290
0.999899 0.286792 0.492290
0.999899 0.286792 0.492290
0.999899 0.286792 0.492290
0.999899 0.286792 0.492290
0.999899 0.286792 0.492290
0.999899 0.286792 0.492290
0.999899 0.286792 0.492290
0.999899 0.286792 0.492290
0.999899 0.286792 0.492290
0.999899 0.286792 0.492290
0.999899 0.286792 0.492290
0.999899 0.286792 0.492290
0.999899 0.286792 0.492290
0.999899 0.286792 0.492290
0.999899 0.286792 0.492290
0.999899 0.286792 0.492290
0.999899 0.286792 0.492290
0.999899 0.286792 0.492290
0.999899 0.286792 0.492290
0.999899 0.286792 0.492290
0.999899 0.286792 0.492290
0.999899 0.286792 0.492290
0.999899 0.286792 0.492290
0.999899 0.286792 0.492290
0.999899 0.286792 0.492290
0.999899 0.286792 0.492290
0.999899 0.286792 0.492290
0.999899 0.286792 0.492290
0.999899 0.286792 0.492290
0.999899 0.286792 0.492290
0.999899 0.286792 0.492290
0.000000 0.030005 0.000273
0.000000 0.023335 0.000000
0.000373 0.021324 0.000582
0.000182 0.016664 0.000000
0.000000 0.013678 0.000000
0.000000 0.011667 0.000000
0.000383 0.009657 0.000667
0.000000 0.006671 0.000445
0.000000 0.006671 0.000445
0.000192 0.004997 0.000000
0.007621 0.004497 0.000000
0.024826 0.004111 0.000000
0.049462 0.003225 0.000000
0.092278 0.002930 0.000000
0.140178 0.001520 0.001437
0.211345 0.000592 0.000000
0.284855 0.000000 0.000167
0.365404 0.000134 0.000356
0.459443 0.000356 0.000989
0.543707 0.000000 0.005614
0.635984 0.000033 0.019337
0.729632 0.000000 0.033059
0.832268 0.000000 0.062047
0.930405 0.000000 0.114509
1.000000 0.000000 0.169539
0.999770 0.021846 0.246399
0.999731 0.051375 0.334309
0.999309 0.072255 0.416359
1.000000 0.105120 0.483504
1.000000 0.147793 0.488128
1.000000 0.199123 0.488985
0.999535 0.253800 0.491793
0.999899 0.286792 0.492290
0.999899 0.286792 0.492290
0.999899 0.286792 0.492290
0.999899 0.286792 0.492290
0.999899 0.286792 0.492290
0.999899 0.286792 0.492290
0.999899 0.286792 0.492290
0.999899 0.286792 0.492290
0.999899 0.286792 0.492290
0.999899 0.286792 0.492290
0.999899 0.286792 0.492290
0.999899 0.286792 0.492290
0.999899 0.286792 0.492290
0.999899 0.286792 0.492290
0.999899 0.286792 0.492290
0.999899 0.286792 0.492290
0.999899 0.286792 0.492290
0.999899 0.286792 0.492290
0.999899 0.286792 0.492290
0.999899 0.286792 0.492290
0.999899 0.286792 0.492290
0.999899 0.286792 0.492290
0.999899 0.286792 0.492290
0.999899 0.286792 0.492290
0.999899 0.286792 0.492290
0.999899 0.286792 0.492290
0.999899 0.286792 0.492290
0.999899 0.286792 0.492290
0.999899 0.286792 0.492290
0.999899 0.286792 0.492290
0.999899 0.286792 0.492290
0.999899 0.286792 0.492290
0.999899 0.286792 0.492290
0.000000 0.048343 0.000633
0.001138 0.040975 0.000187
0.000000 0.035002 0.000000
0.000000 0.030005 0.000273
0.000000 0.025344 0.000000
0.000373 0.021324 0.000582
0.000182 0.016664 0.000000
0.000575 0.014654 0.000136
0.000000 0.011667 0.000000
0.000000 0.010690 0.000000
0.003121 0.008262 0.000667
0.013289 0.006704 0.000000
0.035185 0.007212 0.000000
0.073311 0.006023 0.000000
0.118474 0.006343 0.000000
0.176541 0.003374 0.000000
0.249075 0.001413 0.000000
0.333732 0.000000 0.000000
0.419365 0.000000 0.000000
0.503629 0.000000 0.000000
0.598645 0.000000 0.008371
0.685838 0.000000 0.026309
0.788867 0.000000 0.049130
0.888766 0.000000 0.088500
0.991201 0.000192 0.149083
0.999790 0.004897 0.213691
1.000000 0.037749 0.300094
1.000000 0.060271 0.389288
0.999289 0.087188 0.459450
1.000000 0.129456 0.487770
1.000000 0.178775 0.489380
0.999948 0.228792 0.490989
0.999707 0.281796 0.492820
0.999899 0.286792 0.492290
0.999899 0.286792 0.492290
0.999899 0.286792 0.492290
0.999899 0.286792 0.492290
0.999899 0.286792 0.492290
0.999899 0.286792 0.492290
0.999899 0.286792 0.492290
0.999899 0.286792 0.492290
0.999899 0.286792 0.492290
0.999899 0.286792 0.492290
0.999899 0.286792 0.492290
0.999899 0.286792 0.492290
0.999899 0.286792 0.492290
0.999899 0.286792 0.492290
0.999899 0.286792 0.492290
0.999899 0.286792 0.492290
0.999899 0.286792 0.492290
0.999899 0.286792 0.492290
0.999899 0.286792 0.492290
0.999899 0.286792 0.492290
0.999899 0.286792 0.492290
0.999899 0.286792 0.492290
0.999899 0.286792 0.492290
0.999899 0.286792 0.492290
0.999899 0.286792 0.492290
0.999899 0.286792 0.492290
0.999899 0.286792 0.492290
0.999899 0.286792 0.492290
0.999899 0.286792 0.492290
0.999899 0.286792 0.492290
0.999899 0.286792 0.492290
0.999899 0.286792 0.492290
0.000000 0.073687 0.000000
0.000334 0.067993 0.000238
0.000142 0.062996 0.000769
0.000152 0.051665 0.000000
0.000353 0.044659 0.000411
0.000162 0.039663 0.000942
0.000000 0.030005 0.000273
0.000000 0.025344 0.000000
0.000373 0.021324 0.000582
0.000765 0.019651 0.000000
0.000182 0.016664 0.000000
0.005266 0.015548 0.000360
0.022862 0.013153 0.000803
0.053559 0.012464 0.000942
0.091684 0.011610 0.000000
0.147014 0.010036 0.000000
0.216811 0.009470 0.000000
0.297168 0.004999 0.000082
0.388670 0.000000 0.000269
0.474304 0.000000 0.000000
0.565996 0.000000 0.000000
0.658667 0.000000 0.006914
0.751528 0.000000 0.034703
0.850450 0.000000 0.069638
0.947217 0.000226 0.118637
0.999800 0.000000 0.182630
1.000000 0.027477 0.258204
0.999922 0.053682 0.347621
0.999107 0.076237 0.430648
1.000000 0.113800 0.483194
1.000000 0.158124 0.485336
1.000000 0.209116 0.487921
0.999335 0.260472 0.492239
0.999899 0.286792 0.492290
0.999899 0.286792 0.492290
0.999899 0.286792 0.492290
0.999899 0.286792 0.492290
0.999899 0.286792 0.492290
0.999899 0.286792 0.492290
0.999899 0.286792 0.492290
0.999899 0.286792 0.492290
0.999899 0.286792 0.492290
0.999899 0.286792 0.492290
0.999899 0.286792 0.492290
0.999899 0.286792 0.492290
0.999899 0.286792 0.492290
0.999899 0.286792 0.492290
0.999899 0.286792 0.492290
0.999899 0.286792 0.492290
0.999899 0.286792 0.492290
0.999899 0.286792 0.492290
0.999899 0.286792 0.492290
0.999899 0.286792 0.492290
0.999899 0.286792 0.492290
0.999899 0.286792 0.492290
0.999899 0.286792 0.492290
0.999899 0.286792 0.492290
0.999899 0.286792 0.492290
0.999899 0.286792 0.492290
0.999899 0.286792 0.492290
0.999899 0.286792 0.492290
0.999899 0.286792 0.492290
0.999899 0.286792 0.492290
0.999899 0.286792 0.492290
0.999899 0.286792 0.492290
0.000000 0.105004 0.000000
0.000113 0.097998 0.000511
0.000123 0.086331 0.000598
0.000716 0.077650 0.000905
0.000334 0.067993 0.000238
0.000142 0.062996 0.000769
0.000152 0.051665 0.000000
0.000353 0.044659 0.000411
0.000162 0.039663 0.000942
0.001340 0.034305 0.000000
0.000757 0.030982 0.001250
0.000000 0.025344 0.000000
0.010732 0.024426 0.000273
0.031652 0.023959 0.000000
0.069778 0.022769 0.000000
0.121785 0.019603 0.000000
0.183176 0.018225 0.000000
0.270963 0.013588 0.000000
0.355035 0.008700 0.000578
0.439107 0.004483 0.000000
0.532956 0.000000 0.000000
0.624648 0.000000 0.000000
0.718294 0.000540 0.006433
0.813895 0.000000 0.035952
0.904994 0.000000 0.076832
0.999023 0.000000 0.141407
0.998995 0.019575 0.217290
1.000000 0.042067 0.312653
0.999902 0.067607 0.395902
0.999672 0.094492 0.472231
0.999633 0.138809 0.484001
1.000000 0.188464 0.483879
1.000000 0.238449 0.491656
0.999899 0.286792 0.492290
0.999899 0.286792 0.492290
0.999899 0.286792 0.492290
0.999899 0.286792 0.492290
0.999899 0.286792 0.492290
