public/luts/fujifilm/FLog_to_ETERNA-BB_65gird_V.1.00.cube
#title:FLog_to_ETERNA-BB
#model:GFX ETERNA 55
#FUJIFILM Corporation
#Gamma:F-Log to ETERNA BLEACH BYPASS
#Gamut:F-Gamut to ITU-R BT.709
#Version:1.00
LUT_3D_SIZE 65
0.000000 0.000000 0.000000
0.000000 0.000000 0.000000
0.000000 0.000000 0.000000
0.000000 0.000000 0.000000
0.000000 0.000000 0.000000
0.013097 0.001707 0.000000
0.029517 0.003997 0.004798
0.044960 0.005311 0.008925
0.057082 0.005704 0.009371
0.071157 0.007716 0.013499
0.081908 0.008135 0.017405
0.095006 0.009506 0.018828
0.111426 0.012132 0.022203
0.128239 0.013084 0.024601
0.149350 0.016268 0.029930
0.175545 0.018338 0.036235
0.205455 0.020661 0.040055
0.237712 0.022927 0.046582
0.276419 0.024052 0.050625
0.313175 0.023223 0.052714
0.348956 0.020747 0.057290
0.378674 0.018409 0.059910
0.407023 0.016769 0.062531
0.431850 0.020880 0.061915
0.457461 0.020634 0.064535
0.482096 0.019748 0.064449
0.500671 0.018329 0.065872
0.518267 0.015598 0.068046
0.534104 0.015237 0.071200
0.546224 0.015631 0.071645
0.558346 0.015352 0.075551
0.567144 0.014491 0.074042
0.577897 0.014575 0.079680
0.587672 0.014689 0.079148
0.586302 0.015051 0.080878
0.586302 0.015051 0.080878
0.586302 0.015051 0.080878
0.586302 0.015051 0.080878
0.586302 0.015051 0.080878
0.586302 0.015051 0.080878
0.586302 0.015051 0.080878
0.586302 0.015051 0.080878
0.586302 0.015051 0.080878
0.586302 0.015051 0.080878
0.586302 0.015051 0.080878
0.586302 0.015051 0.080878
0.586302 0.015051 0.080878
0.586302 0.015051 0.080878
0.586302 0.015051 0.080878
0.586302 0.015051 0.080878
0.586302 0.015051 0.080878
0.586302 0.015051 0.080878
0.586302 0.015051 0.080878
0.586302 0.015051 0.080878
0.586302 0.015051 0.080878
0.586302 0.015051 0.080878
0.586302 0.015051 0.080878
0.586302 0.015051 0.080878
0.586302 0.015051 0.080878
0.586302 0.015051 0.080878
0.586302 0.015051 0.080878
0.586302 0.015051 0.080878
0.586302 0.015051 0.080878
0.586302 0.015051 0.080878
0.586302 0.015051 0.080878
0.000000 0.000000 0.000000
0.000000 0.000000 0.000000
0.000000 0.000000 0.000000
0.000000 0.000000 0.000000
0.000000 0.000000 0.000000
0.008406 0.000813 0.000000
0.023849 0.002462 0.001868
0.040269 0.004752 0.006972
0.053368 0.005786 0.010126
0.065488 0.006181 0.010569
0.078193 0.008553 0.016428
0.090315 0.008611 0.018606
0.104388 0.010622 0.022734
0.124525 0.013502 0.023625
0.141336 0.014118 0.027755
0.164794 0.017583 0.034058
0.193727 0.018592 0.038633
0.226960 0.022172 0.044406
0.264299 0.023994 0.048450
0.298317 0.024224 0.052269
0.329012 0.023199 0.054136
0.362446 0.019771 0.061196
0.389818 0.017827 0.059379
0.417775 0.018196 0.061247
0.442602 0.021635 0.064090
0.467237 0.020749 0.064004
0.488549 0.017936 0.065426
0.506730 0.018190 0.067825
0.524328 0.015458 0.069999
0.537818 0.015155 0.070445
0.549939 0.015213 0.072622
0.560691 0.015632 0.076528
0.570860 0.014073 0.075019
0.580242 0.014853 0.080656
0.586302 0.015051 0.080878
0.586302 0.015051 0.080878
0.586302 0.015051 0.080878
0.586302 0.015051 0.080878
0.586302 0.015051 0.080878
0.586302 0.015051 0.080878
0.586302 0.015051 0.080878
0.586302 0.015051 0.080878
0.586302 0.015051 0.080878
0.586302 0.015051 0.080878
0.586302 0.015051 0.080878
0.586302 0.015051 0.080878
0.586302 0.015051 0.080878
0.586302 0.015051 0.080878
0.586302 0.015051 0.080878
0.586302 0.015051 0.080878
0.586302 0.015051 0.080878
0.586302 0.015051 0.080878
0.586302 0.015051 0.080878
0.586302 0.015051 0.080878
0.586302 0.015051 0.080878
0.586302 0.015051 0.080878
0.586302 0.015051 0.080878
0.586302 0.015051 0.080878
0.586302 0.015051 0.080878
0.586302 0.015051 0.080878
0.586302 0.015051 0.080878
0.586302 0.015051 0.080878
0.586302 0.015051 0.080878
0.586302 0.015051 0.080878
0.586302 0.015051 0.080878
0.000000 0.000000 0.000000
0.000000 0.000000 0.000000
0.000000 0.000000 0.000000
0.000000 0.000000 0.000000
0.000000 0.000000 0.000000
0.004691 0.000895 0.000222
0.017790 0.002265 0.001644
0.035578 0.004194 0.005019
0.050045 0.004531 0.008173
0.061774 0.006263 0.011325
0.074871 0.007297 0.014475
0.085230 0.009727 0.017629
0.102044 0.010343 0.021758
0.116117 0.013026 0.022426
0.133907 0.014619 0.027531
0.156779 0.015432 0.031882
0.185320 0.018117 0.037434
0.216207 0.021079 0.043961
0.247487 0.023040 0.046051
0.280136 0.023633 0.051602
0.313175 0.023223 0.052714
0.343871 0.021526 0.058042
0.373590 0.019525 0.058934
0.401940 0.017548 0.063285
0.428527 0.019287 0.061690
0.452376 0.021413 0.065289
0.476035 0.019888 0.062496
0.494610 0.018468 0.063919
0.511814 0.017074 0.068801
0.528043 0.015376 0.069247
0.541142 0.016411 0.072399
0.555023 0.014433 0.071867
0.565775 0.014852 0.075773
0.574575 0.013655 0.075996
0.583957 0.014772 0.079902
0.586302 0.015051 0.080878
0.586302 0.015051 0.080878
0.586302 0.015051 0.080878
0.586302 0.015051 0.080878
0.586302 0.015051 0.080878
0.586302 0.015051 0.080878
0.586302 0.015051 0.080878
0.586302 0.015051 0.080878
0.586302 0.015051 0.080878
0.586302 0.015051 0.080878
0.586302 0.015051 0.080878
0.586302 0.015051 0.080878
0.586302 0.015051 0.080878
0.586302 0.015051 0.080878
0.586302 0.015051 0.080878
0.586302 0.015051 0.080878
0.586302 0.015051 0.080878
0.586302 0.015051 0.080878
0.586302 0.015051 0.080878
0.586302 0.015051 0.080878
0.586302 0.015051 0.080878
0.586302 0.015051 0.080878
0.586302 0.015051 0.080878
0.586302 0.015051 0.080878
0.586302 0.015051 0.080878
0.586302 0.015051 0.080878
0.586302 0.015051 0.080878
0.586302 0.015051 0.080878
0.586302 0.015051 0.080878
0.586302 0.015051 0.080878
0.000000 0.000000 0.000000
0.000000 0.000000 0.000000
0.000000 0.000000 0.000000
0.000000 0.000000 0.000000
0.000000 0.000000 0.000000
0.002347 0.000279 0.000977
0.013097 0.001707 0.000000
0.030887 0.003300 0.004798
0.047699 0.004252 0.007196
0.058059 0.006345 0.012079
0.071157 0.007716 0.013499
0.081908 0.008135 0.017405
0.095982 0.010482 0.019804
0.111426 0.012132 0.022203
0.128239 0.013084 0.024601
0.147004 0.015654 0.030685
0.173199 0.018058 0.035258
0.199395 0.020127 0.041563
0.227936 0.023148 0.045382
0.261954 0.023378 0.049202
0.295970 0.023945 0.051292
0.325298 0.023282 0.054892
0.356385 0.020246 0.057512
0.386104 0.017909 0.060133
0.411714 0.018000 0.061023
0.436542 0.021774 0.062137
0.462545 0.019855 0.063782
0.483465 0.019050 0.064449
0.503409 0.016934 0.065872
0.518267 0.015934 0.066317
0.534104 0.015237 0.071200
0.546224 0.015631 0.071645
0.558346 0.015352 0.075551
0.567144 0.014491 0.074042
0.577897 0.014575 0.079680
0.587672 0.014689 0.079148
0.586302 0.015051 0.080878
0.586302 0.015051 0.080878
0.586302 0.015051 0.080878
0.586302 0.015051 0.080878
0.586302 0.015051 0.080878
0.586302 0.015051 0.080878
0.586302 0.015051 0.080878
0.586302 0.015051 0.080878
0.586302 0.015051 0.080878
0.586302 0.015051 0.080878
0.586302 0.015051 0.080878
0.586302 0.015051 0.080878
0.586302 0.015051 0.080878
0.586302 0.015051 0.080878
0.586302 0.015051 0.080878
0.586302 0.015051 0.080878
0.586302 0.015051 0.080878
0.586302 0.015051 0.080878
0.586302 0.015051 0.080878
0.586302 0.015051 0.080878
0.586302 0.015051 0.080878
0.586302 0.015051 0.080878
0.586302 0.015051 0.080878
0.586302 0.015051 0.080878
0.586302 0.015051 0.080878
0.586302 0.015051 0.080878
0.586302 0.015051 0.080878
0.586302 0.015051 0.080878
0.586302 0.015051 0.080878
0.000000 0.000000 0.000000
0.000000 0.000000 0.000000
0.000000 0.000000 0.000000
0.000000 0.000000 0.000000
0.000000 0.000000 0.000000
0.000000 0.000000 0.000000
0.008406 0.000813 0.000000
0.026196 0.002741 0.002845
0.040269 0.004752 0.006972
0.053368 0.005786 0.010126
0.067441 0.007797 0.014254
0.078193 0.008553 0.016428
0.091291 0.009587 0.019582
0.104388 0.010622 0.022734
0.121201 0.011574 0.025132
0.137621 0.014200 0.028507
0.159126 0.015711 0.032859
0.185320 0.018117 0.037434
0.216207 0.021079 0.043961
0.245141 0.022762 0.045075
0.277789 0.023354 0.050625
0.310831 0.022944 0.051738
0.341526 0.021583 0.055337
0.369875 0.019943 0.057957
0.398224 0.017967 0.062309
0.423836 0.018729 0.059737
0.447685 0.020855 0.063336
0.471344 0.018993 0.062273
0.491872 0.019527 0.065648
0.509470 0.016795 0.067825
0.525305 0.016435 0.070976
0.540165 0.015434 0.071422
0.551309 0.014852 0.070891
0.561084 0.014294 0.073820
0.570860 0.014073 0.075019
0.580242 0.014853 0.080656
0.586302 0.015051 0.080878
0.586302 0.015051 0.080878
0.586302 0.015051 0.080878
0.586302 0.015051 0.080878
0.586302 0.015051 0.080878
0.586302 0.015051 0.080878
0.586302 0.015051 0.080878
0.586302 0.015051 0.080878
0.586302 0.015051 0.080878
0.586302 0.015051 0.080878
0.586302 0.015051 0.080878
0.586302 0.015051 0.080878
0.586302 0.015051 0.080878
0.586302 0.015051 0.080878
0.586302 0.015051 0.080878
0.586302 0.015051 0.080878
0.586302 0.015051 0.080878
0.586302 0.015051 0.080878
0.586302 0.015051 0.080878
0.586302 0.015051 0.080878
0.586302 0.015051 0.080878
0.586302 0.015051 0.080878
0.586302 0.015051 0.080878
0.586302 0.015051 0.080878
0.586302 0.015051 0.080878
0.586302 0.015051 0.080878
0.586302 0.015051 0.080878
0.586302 0.015051 0.080878
0.586302 0.015051 0.080878
0.000000 0.000000 0.000000
0.000000 0.000000 0.000000
0.000000 0.000000 0.000000
0.000000 0.000000 0.000000
0.000000 0.000000 0.000000
0.000000 0.000000 0.000000
0.004691 0.000895 0.000222
0.020135 0.002881 0.000892
0.035578 0.004194 0.005019
0.051021 0.005507 0.009149
0.061774 0.006263 0.011325
0.074871 0.007297 0.014475
0.085230 0.009727 0.017629
0.101067 0.009366 0.020781
0.115140 0.012049 0.021449
0.129216 0.014061 0.025578
0.149742 0.014595 0.028953
0.173199 0.018058 0.035258
0.199395 0.020127 0.041563
0.227936 0.023148 0.045382
0.260584 0.024076 0.049202
0.292256 0.024027 0.052047
0.325298 0.023282 0.054892
0.355016 0.021280 0.055780
0.386104 0.017909 0.060133
0.407999 0.018081 0.061777
0.434195 0.021495 0.061160
0.458830 0.020273 0.062805
0.481119 0.018771 0.063472
0.499694 0.017352 0.064895
0.516899 0.016295 0.068046
0.530389 0.015655 0.070223
0.543880 0.015016 0.072399
0.556000 0.015410 0.072844
0.565775 0.014852 0.075773
0.574575 0.013655 0.075996
0.585326 0.014411 0.078172
0.586302 0.015051 0.080878
0.586302 0.015051 0.080878
0.586302 0.015051 0.080878
0.586302 0.015051 0.080878
0.586302 0.015051 0.080878
0.586302 0.015051 0.080878
0.586302 0.015051 0.080878
0.586302 0.015051 0.080878
0.586302 0.015051 0.080878
0.586302 0.015051 0.080878
0.586302 0.015051 0.080878
0.586302 0.015051 0.080878
0.586302 0.015051 0.080878
0.586302 0.015051 0.080878
0.586302 0.015051 0.080878
0.586302 0.015051 0.080878
0.586302 0.015051 0.080878
0.586302 0.015051 0.080878
0.586302 0.015051 0.080878
0.586302 0.015051 0.080878
0.586302 0.015051 0.080878
0.586302 0.015051 0.080878
0.586302 0.015051 0.080878
0.586302 0.015051 0.080878
0.586302 0.015051 0.080878
0.586302 0.015051 0.080878
0.586302 0.015051 0.080878
0.586302 0.015051 0.080878
0.000383 0.009657 0.000667
0.000000 0.006671 0.000445
0.000192 0.004997 0.000000
0.000192 0.004997 0.000000
0.000583 0.002987 0.000222
0.000977 0.000977 0.000977
0.002347 0.000279 0.000977
0.013097 0.001707 0.000000
0.030887 0.003300 0.004798
0.047699 0.004252 0.007196
0.058059 0.006345 0.012079
0.071157 0.007716 0.013499
0.081908 0.008135 0.017405
0.095006 0.009506 0.018828
0.106735 0.011574 0.020250
0.124525 0.013502 0.023625
0.139966 0.014816 0.027755
0.160102 0.017023 0.032104
0.186296 0.019093 0.038410
0.216207 0.021079 0.043961
0.247487 0.023040 0.046051
0.277789 0.023354 0.050625
0.309461 0.023642 0.051738
0.341526 0.021583 0.055337
0.368505 0.019968 0.061418
0.396856 0.018664 0.062309
0.421098 0.019788 0.061468
0.445340 0.020577 0.062360
0.469975 0.019690 0.062273
0.489525 0.018912 0.066402
0.506730 0.018190 0.067825
0.523352 0.014818 0.067294
0.536448 0.015852 0.070445
0.549939 0.015213 0.072622
0.559714 0.014991 0.073820
0.568121 0.014796 0.078481
0.577897 0.014911 0.077949
0.587672 0.014689 0.079148
0.586302 0.015051 0.080878
0.586302 0.015051 0.080878
0.586302 0.015051 0.080878
0.586302 0.015051 0.080878
0.586302 0.015051 0.080878
0.586302 0.015051 0.080878
0.586302 0.015051 0.080878
0.586302 0.015051 0.080878
0.586302 0.015051 0.080878
0.586302 0.015051 0.080878
0.586302 0.015051 0.080878
0.586302 0.015051 0.080878
0.586302 0.015051 0.080878
0.586302 0.015051 0.080878
0.586302 0.015051 0.080878
0.586302 0.015051 0.080878
0.586302 0.015051 0.080878
0.586302 0.015051 0.080878
0.586302 0.015051 0.080878
0.586302 0.015051 0.080878
0.586302 0.015051 0.080878
0.586302 0.015051 0.080878
0.586302 0.015051 0.080878
0.586302 0.015051 0.080878
0.586302 0.015051 0.080878
0.586302 0.015051 0.080878
0.586302 0.015051 0.080878
0.005064 0.021546 0.004266
0.002135 0.018281 0.003066
0.003505 0.017584 0.003066
0.001552 0.015294 0.002845
0.001943 0.013620 0.001868
0.000383 0.009657 0.000667
0.000000 0.006671 0.000445
0.010551 0.007762 0.000892
0.026387 0.007401 0.004042
0.041639 0.004390 0.005243
0.053368 0.005786 0.010126
0.065488 0.006181 0.010569
0.077217 0.007577 0.015452
0.086207 0.010704 0.018606
0.100674 0.011713 0.018297
0.116117 0.013026 0.022426
0.132930 0.013642 0.026554
0.152088 0.014873 0.029930
0.175152 0.020011 0.037211
0.203109 0.020381 0.039078
0.233020 0.022032 0.046359
0.261954 0.023378 0.049202
0.295970 0.023945 0.051292
0.325298 0.023282 0.054892
0.355016 0.021280 0.055780
0.382389 0.017991 0.060887
0.407999 0.018081 0.061777
0.433219 0.020519 0.060184
0.457461 0.020634 0.064535
0.478774 0.018492 0.062496
0.496956 0.018747 0.064895
0.515529 0.016992 0.068046
0.528043 0.015376 0.069247
0.541142 0.016411 0.072399
0.555023 0.014433 0.071867
0.563430 0.014574 0.074797
0.573205 0.014353 0.075996
0.581611 0.014156 0.080656
0.586302 0.015051 0.080878
0.586302 0.015051 0.080878
0.586302 0.015051 0.080878
0.586302 0.015051 0.080878
0.586302 0.015051 0.080878
0.586302 0.015051 0.080878
0.586302 0.015051 0.080878
0.586302 0.015051 0.080878
0.586302 0.015051 0.080878
0.586302 0.015051 0.080878
0.586302 0.015051 0.080878
0.586302 0.015051 0.080878
0.586302 0.015051 0.080878
0.586302 0.015051 0.080878
0.586302 0.015051 0.080878
0.586302 0.015051 0.080878
0.586302 0.015051 0.080878
0.586302 0.015051 0.080878
0.586302 0.015051 0.080878
0.586302 0.015051 0.080878
0.586302 0.015051 0.080878
0.586302 0.015051 0.080878
0.586302 0.015051 0.080878
0.586302 0.015051 0.080878
0.586302 0.015051 0.080878
0.586302 0.015051 0.080878
0.586302 0.015051 0.080878
0.006031 0.033855 0.006887
0.004471 0.029891 0.005686
0.005839 0.029194 0.005686
0.005256 0.026207 0.005465
0.003303 0.024254 0.003512
0.005064 0.021546 0.004266
0.002135 0.018281 0.003066
0.005266 0.015212 0.002089
0.019733 0.015549 0.005243
0.035961 0.013515 0.007418
0.050428 0.013852 0.010569
0.061572 0.012598 0.013499
0.074086 0.010981 0.014699
0.082885 0.009448 0.016653
0.095982 0.010482 0.019804
0.111426 0.012132 0.022203
0.127263 0.012108 0.023625
0.144659 0.015374 0.029708
0.164794 0.017583 0.034058
0.190988 0.019987 0.038633
0.219922 0.020662 0.044938
0.247487 0.023040 0.046051
0.280136 0.023633 0.051602
0.312199 0.022247 0.051738
0.341526 0.021583 0.055337
0.369875 0.020279 0.056226
0.397247 0.016990 0.061332
0.421098 0.019788 0.061468
0.443971 0.020938 0.064090
0.467629 0.019075 0.063027
0.488549 0.017936 0.065426
0.505753 0.017213 0.066848
0.520614 0.016213 0.067294
0.535472 0.014876 0.069469
0.546224 0.015631 0.071645
0.558346 0.015352 0.075551
0.567144 0.014491 0.074042
0.577897 0.014575 0.079680
0.585326 0.014075 0.079902
0.586302 0.015051 0.080878
0.586302 0.015051 0.080878
0.586302 0.015051 0.080878
0.586302 0.015051 0.080878
0.586302 0.015051 0.080878
0.586302 0.015051 0.080878
0.586302 0.015051 0.080878
0.586302 0.015051 0.080878
0.586302 0.015051 0.080878
0.586302 0.015051 0.080878
0.586302 0.015051 0.080878
0.586302 0.015051 0.080878
0.586302 0.015051 0.080878
0.586302 0.015051 0.080878
0.586302 0.015051 0.080878
0.586302 0.015051 0.080878
0.586302 0.015051 0.080878
0.586302 0.015051 0.080878
0.586302 0.015051 0.080878
0.586302 0.015051 0.080878
0.586302 0.015051 0.080878
0.586302 0.015051 0.080878
0.586302 0.015051 0.080878
0.586302 0.015051 0.080878
0.586302 0.015051 0.080878
0.586302 0.015051 0.080878
0.008367 0.045464 0.009507
0.007391 0.044488 0.008531
0.007199 0.039827 0.007332
0.007199 0.039827 0.007332
0.005640 0.035865 0.006133
0.006031 0.033855 0.006887
0.004078 0.031902 0.004934
0.005839 0.029194 0.005686
0.017962 0.029252 0.007864
0.031260 0.023951 0.008840
0.046703 0.025601 0.011238
0.058632 0.021335 0.010484
0.072123 0.020359 0.014390
0.082291 0.018127 0.016343
0.093436 0.016873 0.019273
0.107318 0.014560 0.020473
0.120023 0.017268 0.024601
0.137621 0.014200 0.028507
0.156779 0.015432 0.031882
0.180237 0.018896 0.038188
0.206824 0.019627 0.041785
0.236735 0.021950 0.045605
0.265669 0.023296 0.048450
0.298317 0.024224 0.052269
0.326666 0.022585 0.054892
0.356385 0.020246 0.057512
0.386104 0.017909 0.060133
0.407999 0.018081 0.061777
0.433219 0.020519 0.060184
0.457461 0.020634 0.064535
0.478774 0.018492 0.062496
0.496956 0.018747 0.064895
0.513184 0.016712 0.067069
0.528043 0.015376 0.069247
0.541533 0.014737 0.071422
0.553654 0.014795 0.073598
0.563430 0.014574 0.074797
0.570860 0.014073 0.075019
0.581611 0.014492 0.078925
0.586302 0.015051 0.080878
0.586302 0.015051 0.080878
0.586302 0.015051 0.080878
0.586302 0.015051 0.080878
0.586302 0.015051 0.080878
0.586302 0.015051 0.080878
0.586302 0.015051 0.080878
0.586302 0.015051 0.080878
0.586302 0.015051 0.080878
0.586302 0.015051 0.080878
0.586302 0.015051 0.080878
0.586302 0.015051 0.080878
0.586302 0.015051 0.080878
0.586302 0.015051 0.080878
0.586302 0.015051 0.080878
0.586302 0.015051 0.080878
0.586302 0.015051 0.080878
0.586302 0.015051 0.080878
0.586302 0.015051 0.080878
0.586302 0.015051 0.080878
0.586302 0.015051 0.080878
0.586302 0.015051 0.080878
0.586302 0.015051 0.080878
0.586302 0.015051 0.080878
0.586302 0.015051 0.080878
0.586302 0.015051 0.080878
0.010704 0.057075 0.012130
0.011095 0.055065 0.012882
0.010512 0.052414 0.010929
0.008559 0.050125 0.010707
0.008951 0.048452 0.009731
0.008367 0.045464 0.009507
0.007391 0.044488 0.008531
0.007199 0.039827 0.007332
0.011890 0.040386 0.009285
0.028119 0.038016 0.013192
0.042979 0.037351 0.011906
0.056861 0.034702 0.014836
0.068983 0.034759 0.017013
0.079150 0.032528 0.018966
0.090688 0.029935 0.019187
0.103594 0.025973 0.022872
0.116107 0.024358 0.024070
0.130967 0.023020 0.026245
0.150518 0.022241 0.030375
0.171438 0.020430 0.036235
0.195680 0.020881 0.038855
0.223636 0.020915 0.042452
0.253547 0.023239 0.046273
0.283850 0.023887 0.049117
0.314152 0.024200 0.053691
0.345240 0.021164 0.056313
0.372613 0.018548 0.057957
0.399594 0.017269 0.062309
0.423836 0.018729 0.059737
0.446709 0.019879 0.062360
0.469975 0.019690 0.062273
0.489525 0.018912 0.066402
0.505753 0.017213 0.066848
0.520614 0.016213 0.067294
0.535472 0.014876 0.069469
0.546224 0.015631 0.071645
0.558346 0.015352 0.075551
0.567144 0.014155 0.075773
0.576920 0.013934 0.076972
0.585326 0.014075 0.079902
0.586302 0.015051 0.080878
0.586302 0.015051 0.080878
0.586302 0.015051 0.080878
0.586302 0.015051 0.080878
0.586302 0.015051 0.080878
0.586302 0.015051 0.080878
0.586302 0.015051 0.080878
0.586302 0.015051 0.080878
0.586302 0.015051 0.080878
0.586302 0.015051 0.080878
0.586302 0.015051 0.080878
0.586302 0.015051 0.080878
0.586302 0.015051 0.080878
0.586302 0.015051 0.080878
0.586302 0.015051 0.080878
0.586302 0.015051 0.080878
0.586302 0.015051 0.080878
0.586302 0.015051 0.080878
0.586302 0.015051 0.080878
0.586302 0.015051 0.080878
0.586302 0.015051 0.080878
0.586302 0.015051 0.080878
0.586302 0.015051 0.080878
0.586302 0.015051 0.080878
0.586302 0.015051 0.080878
0.012455 0.065699 0.014526
0.011871 0.062712 0.014305
0.011287 0.060062 0.012351
0.011681 0.058052 0.013107
0.010704 0.057075 0.012130
0.011095 0.055065 0.012882
0.010119 0.054089 0.011906
0.010512 0.052414 0.010929
0.010904 0.050405 0.011684
0.025371 0.050742 0.014836
0.040231 0.049405 0.017013
0.055089 0.048740 0.015727
0.064865 0.048183 0.018657
0.076795 0.043244 0.021362
0.087548 0.043999 0.023540
0.100454 0.041046 0.022032
0.114336 0.038395 0.024961
0.129980 0.033374 0.026914
0.145817 0.033014 0.030066
0.165367 0.031901 0.035926
0.190003 0.030006 0.041032
0.216006 0.028087 0.042676
0.242009 0.025831 0.046051
0.272705 0.024471 0.049649
0.303400 0.023445 0.051516
0.332727 0.022781 0.055113
0.360100 0.019829 0.058489
0.388450 0.018188 0.061109
0.411714 0.018000 0.061023
0.434589 0.020157 0.058454
0.458830 0.020273 0.062805
0.481119 0.018771 0.063472
0.498324 0.018050 0.064895
0.515529 0.016992 0.068046
0.528043 0.015376 0.069247
0.541533 0.014737 0.071422
0.552678 0.013819 0.072622
0.563430 0.014574 0.074797
0.570860 0.014073 0.075019
0.580242 0.014853 0.080656
0.586302 0.015051 0.080878
0.586302 0.015051 0.080878
0.586302 0.015051 0.080878
0.586302 0.015051 0.080878
0.586302 0.015051 0.080878
0.586302 0.015051 0.080878
0.586302 0.015051 0.080878
0.586302 0.015051 0.080878
0.586302 0.015051 0.080878
0.586302 0.015051 0.080878
0.586302 0.015051 0.080878
0.586302 0.015051 0.080878
0.586302 0.015051 0.080878
0.586302 0.015051 0.080878
0.586302 0.015051 0.080878
0.586302 0.015051 0.080878
0.586302 0.015051 0.080878
0.586302 0.015051 0.080878
0.586302 0.015051 0.080878
0.586302 0.015051 0.080878
0.586302 0.015051 0.080878
0.586302 0.015051 0.080878
0.586302 0.015051 0.080878
0.586302 0.015051 0.080878
0.586302 0.015051 0.080878
0.014207 0.074323 0.016926
0.014600 0.072648 0.015949
0.014015 0.069662 0.015727
0.013038 0.068349 0.016479
0.012062 0.067373 0.015503
0.012848 0.063689 0.015281
0.011871 0.062712 0.014305
0.011287 0.060062 0.012351
0.011287 0.060062 0.012351
0.020086 0.058527 0.014305
0.036898 0.059145 0.018433
0.051364 0.059481 0.021586
0.063487 0.059875 0.022032
0.073654 0.057980 0.022254
0.086561 0.054354 0.024207
0.096337 0.054132 0.025407
0.110219 0.051819 0.026605
0.126448 0.049786 0.028781
0.141699 0.046102 0.033441
0.160274 0.044683 0.034863
0.183931 0.041476 0.040722
0.209935 0.039220 0.044098
0.237308 0.036604 0.045742
0.265074 0.032314 0.046410
0.293424 0.030336 0.050761
0.321190 0.025374 0.054892
0.351300 0.021362 0.056535
0.377304 0.018770 0.061639
0.401940 0.017548 0.063285
0.427551 0.018311 0.060714
0.449055 0.020157 0.063336
0.471344 0.018993 0.062273
0.490895 0.018550 0.064671
0.506730 0.018190 0.067825
0.521982 0.015516 0.067294
0.536842 0.014514 0.067739
0.546224 0.015631 0.071645
0.558346 0.015352 0.075551
0.567144 0.014155 0.075773
0.576920 0.013934 0.076972
0.585326 0.014075 0.079902
0.586302 0.015051 0.080878
0.586302 0.015051 0.080878
0.586302 0.015051 0.080878
0.586302 0.015051 0.080878
0.586302 0.015051 0.080878
0.586302 0.015051 0.080878
0.586302 0.015051 0.080878
0.586302 0.015051 0.080878
0.586302 0.015051 0.080878
0.586302 0.015051 0.080878
0.586302 0.015051 0.080878
0.586302 0.015051 0.080878
0.586302 0.015051 0.080878
0.586302 0.015051 0.080878
0.586302 0.015051 0.080878
0.586302 0.015051 0.080878
0.586302 0.015051 0.080878
0.586302 0.015051 0.080878
0.586302 0.015051 0.080878
0.586302 0.015051 0.080878
0.586302 0.015051 0.080878
0.586302 0.015051 0.080878
0.586302 0.015051 0.080878
0.586302 0.015051 0.080878
0.016936 0.083923 0.020301
0.017328 0.082249 0.019324
0.015375 0.080296 0.017371
0.014791 0.076973 0.018879
0.015183 0.075299 0.017902
0.014600 0.072648 0.015949
0.014600 0.072648 0.015949
0.014015 0.069326 0.017456
0.013038 0.068349 0.016479
0.015777 0.066954 0.016479
0.031613 0.066594 0.019633
0.048427 0.067211 0.023762
0.060547 0.067268 0.025938
0.071299 0.068696 0.024652
0.085181 0.066719 0.024121
0.096327 0.065464 0.027051
0.107470 0.064209 0.029980
0.122330 0.062535 0.033886
0.138559 0.060502 0.036062
0.155179 0.057130 0.035530
0.176492 0.053979 0.038684
0.202496 0.051388 0.043789
0.229869 0.048435 0.047164
0.257243 0.045482 0.050539
0.287746 0.039460 0.052938
0.314535 0.033857 0.054360
0.342301 0.029231 0.056757
0.368114 0.022987 0.055473
0.394118 0.020059 0.062309
0.417775 0.018196 0.061247
0.437910 0.021077 0.062137
0.462545 0.019855 0.063782
0.482096 0.019748 0.064449
0.499694 0.017352 0.064895
0.516899 0.016295 0.068046
0.530389 0.015655 0.070223
0.541142 0.016411 0.072399
